; generated by PrusaSlicer 2.4.2+x64 on 2022-07-30 at 18:53:02 UTC


;
;

;
;
; 

; external perimeters extrusion width = 0.25mm
; perimeters extrusion width = 0.25mm
; infill extrusion width = 0.25mm
; solid infill extrusion width = 0.25mm
; top infill extrusion width = 0.25mm
; first layer extrusion width = 0.30mm

; external perimeters extrusion width = 0.25mm
; perimeters extrusion width = 0.25mm
; infill extrusion width = 0.25mm
; solid infill extrusion width = 0.25mm
; top infill extrusion width = 0.25mm
; first layer extrusion width = 0.30mm

; external perimeters extrusion width = 0.25mm
; perimeters extrusion width = 0.25mm
; infill extrusion width = 0.25mm
; solid infill extrusion width = 0.25mm
; top infill extrusion width = 0.25mm
; first layer extrusion width = 0.30mm

M73 P0 R90
M201 X2500 Y2500 Z400 E5000 ; sets maximum accelerations, mm/sec^2
M203 X180 Y180 Z12 E80 ; sets maximum feedrates, mm / sec
M204 P1250 R1250 T2500 ; sets acceleration (P, T) and retract acceleration (R), mm/sec^2
M205 X8.00 Y8.00 Z2.00 E10.00 ; sets the jerk limits, mm/sec
M205 S0 T0 ; sets the minimum extruding and travel feed rate, mm/sec
M107
;TYPE:Custom
M862.3 P "MINI" ; printer model check
G90 ; use absolute coordinates
M83 ; extruder relative mode
M104 S170 ; set extruder temp for bed leveling
M140 S60 ; set bed temp
M109 R170 ; wait for bed leveling temp
M190 S60 ; wait for bed temp
M204 T1250 ; set travel acceleration
G28 ; home all without mesh bed level
G29 ; mesh bed leveling 
M204 T2500 ; restore travel acceleration
M104 S215 ; set extruder temp
G92 E0
G1 Y-2 X179 F2400
G1 Z3 F720
M109 S215 ; wait for extruder temp

; intro line
G1 X170 F1000
G1 Z0.2 F720
G1 X110 E8 F600
G1 X40 E10 F400
G92 E0

M221 S95 ; set flow
G21 ; set units to millimeters
G90 ; use absolute coordinates
M83 ; use relative distances for extrusion
M900 K0.2 ; Filament gcode LA 1.5
; ; Filament gcode LA 1.0
M107
;LAYER_CHANGE
;Z:0.2
;HEIGHT:0.2
;BEFORE_LAYER_CHANGE
G92 E0.0
;0.2


G1 E-3 F4200
G1 Z.15 F720
G1 Z.2
;AFTER_LAYER_CHANGE
;0.2
G1 Z.35
G1 X75.653 Y44.403 F9000
G1 Z.2 F720
G1 E3 F2400
M204 P800
;TYPE:Skirt/Brim
;WIDTH:0.3
G1 F1200
G1 X77.347 Y43.448 E.04157
G1 X80.125 Y43.598 E.05946
G1 X83.396 Y43.842 E.07014
G1 X88.498 Y44.909 E.1114
G1 X93.848 Y46.887 E.12194
G1 X98.309 Y49.455 E.11003
G1 X101.691 Y52.296 E.09441
G1 X104.284 Y55.558 E.08908
G1 X104.757 Y56.907 E.03055
G1 X105.254 Y90.112 E.70989
G1 X103.754 Y120.197 E.64389
G1 X103.409 Y122.055 E.04041
G1 X103.072 Y122.869 E.01882
G1 X102.205 Y124.167 E.03337
G1 X101.582 Y124.789 E.01883
G1 X100.285 Y125.657 E.03336
G1 X99.779 Y125.909 E.01208
G1 X79.499 Y133.039 E.45954
G1 X78.171 Y133.091 E.0284
G1 X77.044 Y132.387 E.0284
G1 X76.497 Y131.037 E.03114
G1 X74.747 Y100.128 E.66179
G1 X74.743 Y79.967 E.43096
G1 X75.243 Y45.667 E.73328
G1 X75.641 Y44.439 E.0276
M204 P1000
; printing object OR_gate.stl id:2 copy 0
G1 E-2.1 F4200
;WIPE_START
G1 F7200
G1 X76.975 Y43.664 E-.855
;WIPE_END
G1 E-.045 F4200
G1 Z.35 F720
G1 X78.96 Y46.447 F9000
G1 Z.2 F720
G1 E3 F2400
M204 P800
;TYPE:Perimeter
G1 F1200
G1 X82.843 Y46.711 E.0832
G1 X87.852 Y47.759 E.10937
G1 X92.456 Y49.456 E.1049
G1 X96.477 Y51.731 E.09875
G1 X99.757 Y54.487 E.09159
G1 X101.66 Y56.941 E.06637
G1 X99.757 Y59.395 E.06637
G1 X96.477 Y62.151 E.09159
G1 X92.456 Y64.426 E.09875
G1 X87.852 Y66.123 E.1049
G1 X82.843 Y67.171 E.10937
G1 X78.96 Y67.434 E.0832
G1 X80.141 Y65.582 E.04695
G1 X81.261 Y62.886 E.06242
G1 X81.948 Y59.969 E.06405
G1 X82.18 Y56.941 E.06492
G1 X81.948 Y53.913 E.06492
G1 X81.261 Y50.996 E.06405
G1 X80.141 Y48.299 E.06241
G1 X78.98 Y46.479 E.04615
M204 P1000
G1 X78.47 Y46.156 F9000
M204 P800
G1 F1200
G1 X82.879 Y46.456 E.09446
G1 X87.923 Y47.511 E.11016
G1 X92.565 Y49.222 E.10575
G1 X96.624 Y51.519 E.0997
G1 X99.944 Y54.308 E.09268
G1 X101.985 Y56.941 E.07122
G1 X99.944 Y59.574 E.07122
G1 X96.624 Y62.363 E.09268
G1 X92.565 Y64.66 E.0997
G1 X87.923 Y66.371 E.10575
G1 X82.879 Y67.426 E.11016
G1 X78.47 Y67.725 E.09446
G1 X79.912 Y65.463 E.05735
G1 X81.016 Y62.806 E.06149
G1 X81.694 Y59.93 E.06318
G1 X81.922 Y56.941 E.06408
G1 X81.694 Y53.952 E.06408
G1 X81.016 Y51.075 E.06318
G1 X79.912 Y48.419 E.06149
G1 X78.49 Y46.188 E.05655
M204 P1000
G1 X77.855 Y45.857 F9000
M204 P800
;TYPE:External perimeter
G1 F1200
G1 X82.914 Y46.201 E.10839
G1 X87.994 Y47.263 E.11094
G1 X92.673 Y48.988 E.10661
G1 X96.771 Y51.307 E.10065
G1 X100.13 Y54.129 E.09378
G1 X102.31 Y56.941 E.07606
G1 X100.13 Y59.753 E.07606
G1 X96.771 Y62.575 E.09378
G1 X92.673 Y64.894 E.10065
G1 X87.994 Y66.619 E.10661
G1 X82.914 Y67.681 E.11094
G1 X77.855 Y68.025 E.10839
G1 X78.22 Y67.64 E.01133
G1 X79.684 Y65.344 E.05821
G1 X80.77 Y62.727 E.06056
G1 X81.439 Y59.89 E.06231
G1 X81.664 Y56.941 E.06323
G1 X81.439 Y53.992 E.06323
G1 X80.77 Y51.155 E.06231
G1 X79.684 Y48.538 E.06056
G1 X78.22 Y46.242 E.05821
G1 X77.881 Y45.884 E.01053
M204 P1000
G1 X78.088 Y45.947 F9000
G1 E-2.1 F4200
;WIPE_START
G1 F7200
G1 X79.421 Y45.981 E-.855
;WIPE_END
G1 E-.045 F4200
G1 Z.35 F720
G1 X96.422 Y51.788 F9000
G1 Z.2 F720
G1 E3 F2400
M204 P800
;TYPE:Solid infill
;WIDTH:0.300074
G1 F1200
G1 X100.869 Y56.235 E.13448
G1 X101.416 Y56.941 E.01909
G1 X101.326 Y57.056 E.00313
G1 X95.89 Y51.62 E.16439
G1 X95.052 Y51.146 E.02058
G1 X101.167 Y57.261 E.18492
G1 X101.009 Y57.466 E.00554
G1 X94.215 Y50.672 E.20544
G1 X93.377 Y50.198 E.02058
G1 X100.85 Y57.671 E.22597
G1 X100.691 Y57.876 E.00554
G1 X92.539 Y49.724 E.2465
G1 X92.375 Y49.631 E.00403
G1 X91.912 Y49.461 E.01055
G1 X100.532 Y58.081 E.26067
G1 X100.373 Y58.286 E.00554
G1 X91.336 Y49.248 E.27328
G1 X90.76 Y49.036 E.01312
G1 X100.215 Y58.49 E.28589
G1 X100.056 Y58.695 E.00554
M73 P0 R89
G1 X90.184 Y48.824 E.29851
G1 X89.608 Y48.612 E.01312
G1 X99.897 Y58.9 E.31112
G1 X99.738 Y59.105 E.00554
G1 X89.032 Y48.399 E.32373
G1 X88.456 Y48.187 E.01312
G1 X99.57 Y59.3 E.33606
G1 X99.372 Y59.467 E.00552
G1 X87.88 Y47.975 E.3475
G1 X87.404 Y47.862 E.01047
M73 P1 R89
G1 X99.175 Y59.633 E.35594
G1 X98.977 Y59.799 E.00552
G1 X86.944 Y47.766 E.36386
G1 X86.484 Y47.67 E.01005
G1 X98.779 Y59.965 E.37179
G1 X98.582 Y60.131 E.00552
G1 X86.025 Y47.573 E.37972
G1 X85.565 Y47.477 E.01005
G1 X98.384 Y60.297 E.38765
G1 X98.187 Y60.463 E.00552
G1 X85.105 Y47.381 E.39558
G1 X84.645 Y47.285 E.01005
G1 X97.989 Y60.629 E.40351
G1 X97.791 Y60.795 E.00552
G1 X84.185 Y47.189 E.41144
G1 X83.725 Y47.093 E.01005
G1 X97.594 Y60.961 E.41937
G1 X97.396 Y61.127 E.00552
G1 X83.265 Y46.996 E.4273
G1 X82.807 Y46.902 E.01
G1 X97.198 Y61.293 E.43518
G1 X97.001 Y61.459 E.00552
G1 X82.417 Y46.875 E.441
G1 X82.027 Y46.849 E.00836
G1 X96.803 Y61.625 E.44682
G1 X96.605 Y61.791 E.00552
G1 X81.637 Y46.822 E.45264
G1 X81.247 Y46.796 E.00836
G1 X96.408 Y61.957 E.45847
G1 X96.183 Y62.096 E.00565
G1 X80.856 Y46.769 E.46346
G1 X80.466 Y46.743 E.00836
G1 X95.951 Y62.227 E.46824
G1 X95.718 Y62.359 E.00571
G1 X80.076 Y46.716 E.47301
G1 X79.686 Y46.69 E.00836
G1 X95.486 Y62.49 E.47779
G1 X95.254 Y62.622 E.00571
G1 X79.381 Y46.749 E.47998
G1 X80.021 Y47.752 E.02545
G1 X95.022 Y62.753 E.45361
G1 X94.789 Y62.884 E.00571
G1 X80.453 Y48.548 E.43351
G1 X80.712 Y49.17 E.0144
G1 X94.557 Y63.016 E.41868
G1 X94.325 Y63.147 E.00571
G1 X80.97 Y49.792 E.40385
G1 X81.228 Y50.414 E.0144
G1 X94.093 Y63.279 E.38901
G1 X93.86 Y63.41 E.00571
G1 X81.463 Y51.013 E.37489
G1 X81.575 Y51.489 E.01045
G1 X93.628 Y63.541 E.36447
G1 X93.396 Y63.673 E.00571
G1 X81.687 Y51.964 E.35406
G1 X81.799 Y52.44 E.01045
G1 X93.164 Y63.804 E.34364
G1 X92.931 Y63.936 E.00571
G1 X81.912 Y52.916 E.33323
G1 X82.024 Y53.392 E.01045
G1 X92.699 Y64.067 E.32282
G1 X92.467 Y64.199 E.00571
G1 X82.136 Y53.868 E.3124
G1 X82.169 Y54.264 E.00851
G1 X92.214 Y64.31 E.30378
G1 X91.949 Y64.408 E.00606
G1 X82.199 Y54.658 E.29483
G1 X82.229 Y55.052 E.00845
G1 X91.683 Y64.506 E.28588
G1 X91.417 Y64.604 E.00606
G1 X82.259 Y55.445 E.27694
G1 X82.289 Y55.839 E.00845
G1 X91.151 Y64.702 E.26799
G1 X90.886 Y64.799 E.00606
G1 X82.319 Y56.233 E.25904
G1 X82.349 Y56.627 E.00845
G1 X90.62 Y64.897 E.25009
G1 X90.354 Y64.995 E.00606
G1 X82.368 Y57.009 E.24149
G1 X82.342 Y57.347 E.00724
G1 X90.089 Y65.093 E.23424
G1 X89.823 Y65.191 E.00606
G1 X82.317 Y57.685 E.22698
G1 X82.291 Y58.023 E.00724
G1 X89.557 Y65.289 E.21973
G1 X89.291 Y65.387 E.00606
G1 X82.265 Y58.361 E.21248
G1 X82.239 Y58.698 E.00724
G1 X89.026 Y65.485 E.20522
G1 X88.76 Y65.583 E.00606
G1 X82.213 Y59.036 E.19797
G1 X82.187 Y59.374 E.00724
G1 X88.494 Y65.681 E.19071
G1 X88.228 Y65.779 E.00606
G1 X82.161 Y59.712 E.18346
G1 X82.129 Y60.043 E.00712
G1 X87.963 Y65.877 E.1764
G1 X87.684 Y65.961 E.00624
G1 X82.06 Y60.337 E.17006
G1 X81.99 Y60.632 E.00647
G1 X87.383 Y66.024 E.16306
G1 X87.082 Y66.087 E.00657
G1 X81.921 Y60.926 E.15607
G1 X81.852 Y61.22 E.00647
G1 X86.781 Y66.15 E.14907
G1 X86.48 Y66.213 E.00657
G1 X81.782 Y61.515 E.14207
G1 X81.713 Y61.809 E.00647
G1 X86.18 Y66.276 E.13507
G1 X85.879 Y66.339 E.00657
G1 X81.644 Y62.103 E.12808
G1 X81.574 Y62.398 E.00647
G1 X85.578 Y66.402 E.12108
G1 X85.277 Y66.465 E.00657
G1 X81.505 Y62.692 E.11408
G1 X81.43 Y62.981 E.00638
G1 X84.977 Y66.528 E.10724
G1 X84.676 Y66.59 E.00657
G1 X81.324 Y63.238 E.10137
G1 X81.217 Y63.495 E.00595
G1 X84.375 Y66.653 E.09551
G1 X84.074 Y66.716 E.00657
G1 X81.11 Y63.752 E.08964
G1 X81.003 Y64.009 E.00595
G1 X83.774 Y66.779 E.08377
G1 X83.473 Y66.842 E.00657
G1 X80.897 Y64.266 E.0779
G1 X80.79 Y64.523 E.00595
G1 X83.172 Y66.905 E.07203
G1 X82.871 Y66.968 E.00657
G1 X80.683 Y64.78 E.06617
G1 X80.577 Y65.037 E.00595
G1 X82.538 Y66.998 E.05931
G1 X82.197 Y67.021 E.0073
G1 X80.47 Y65.294 E.05224
G1 X80.363 Y65.551 E.00595
G1 X81.857 Y67.044 E.04517
G1 X81.516 Y67.068 E.0073
G1 X80.238 Y65.789 E.03866
G1 X80.096 Y66.011 E.00563
G1 X81.176 Y67.091 E.03264
G1 X80.835 Y67.114 E.0073
G1 X79.955 Y66.233 E.02663
G1 X79.813 Y66.455 E.00563
G1 X80.495 Y67.137 E.02061
G1 X80.154 Y67.16 E.0073
G1 X79.672 Y66.677 E.01459
G1 X79.53 Y66.9 E.00563
G1 X79.814 Y67.183 E.00858
G1 X79.473 Y67.206 E.0073
G1 X79.305 Y67.038 E.0051
M204 P1000
; stop printing object OR_gate.stl id:2 copy 0
; printing object AND_gate.stl id:0 copy 0
G1 E-2.1 F4200
;WIPE_START
G1 F7200
G1 X79.473 Y67.206 E-.13205
G1 X79.814 Y67.183 E-.18915
G1 X79.53 Y66.9 E-.2223
G1 X79.672 Y66.677 E-.14595
G1 X79.883 Y66.889 E-.16554
;WIPE_END
G1 E-.045 F4200
G1 Z.35 F720
G1 X77.664 Y80.664 F9000
G1 Z.2 F720
G1 E3 F2400
M204 P800
;TYPE:Perimeter
;WIDTH:0.3
G1 F1200
G1 X92.971 Y80.664 E.32719
G1 X94.821 Y80.847 E.03974
G1 X96.571 Y81.378 E.03911
G1 X98.185 Y82.24 E.03911
G1 X99.599 Y83.401 E.03911
G1 X100.76 Y84.815 E.03911
G1 X101.622 Y86.429 E.03911
G1 X102.153 Y88.179 E.03911
G1 X102.333 Y90 E.03911
G1 X102.153 Y91.821 E.03911
G1 X101.622 Y93.571 E.03911
G1 X100.76 Y95.185 E.03911
G1 X99.599 Y96.599 E.03911
G1 X98.185 Y97.76 E.03911
G1 X96.571 Y98.622 E.03911
G1 X94.821 Y99.153 E.03911
G1 X92.967 Y99.336 E.03981
G1 X77.664 Y99.336 E.32713
G1 X77.664 Y80.702 E.39833
M204 P1000
G1 X77.407 Y80.407 F9000
M204 P800
G1 F1200
G1 X92.983 Y80.407 E.33296
G1 X94.871 Y80.593 E.04055
G1 X96.67 Y81.139 E.04019
G1 X98.328 Y82.025 E.04019
G1 X99.782 Y83.218 E.04019
G1 X100.975 Y84.672 E.04019
G1 X101.861 Y86.33 E.04019
G1 X102.407 Y88.129 E.04019
G1 X102.591 Y90 E.04019
G1 X102.407 Y91.871 E.04019
G1 X101.861 Y93.67 E.04019
G1 X100.975 Y95.328 E.04019
G1 X99.782 Y96.782 E.04019
G1 X98.328 Y97.975 E.04019
G1 X96.67 Y98.861 E.04019
G1 X94.871 Y99.407 E.04019
G1 X92.98 Y99.593 E.04062
G1 X77.407 Y99.593 E.33289
M73 P2 R89
G1 X77.407 Y80.445 E.40932
M204 P1000
G1 X77.15 Y80.15 F9000
M204 P800
;TYPE:External perimeter
M73 P2 R88
G1 F1200
G1 X92.996 Y80.15 E.33873
G1 X94.921 Y80.34 E.04136
G1 X96.769 Y80.9 E.04127
G1 X98.472 Y81.811 E.04127
G1 X99.964 Y83.036 E.04127
G1 X101.189 Y84.528 E.04127
G1 X102.1 Y86.231 E.04127
G1 X102.66 Y88.079 E.04127
G1 X102.849 Y90 E.04127
G1 X102.66 Y91.921 E.04127
G1 X102.1 Y93.769 E.04127
G1 X101.189 Y95.472 E.04127
G1 X99.964 Y96.964 E.04127
G1 X98.472 Y98.189 E.04127
G1 X96.769 Y99.1 E.04127
G1 X94.921 Y99.66 E.04127
G1 X92.993 Y99.85 E.04143
G1 X77.15 Y99.85 E.33866
G1 X77.15 Y80.188 E.42031
M204 P1000
G1 X77.389 Y80.223 F9000
G1 E-2.1 F4200
;WIPE_START
G1 F7200
G1 X78.693 Y80.184 E-.855
;WIPE_END
G1 E-.045 F4200
G1 Z.35 F720
G1 X98.627 Y82.702 F9000
G1 Z.2 F720
G1 E3 F2400
M204 P800
;TYPE:Solid infill
;WIDTH:0.301392
G1 F1200
G1 X99.463 Y83.539 E.02542
G1 X100.599 Y84.923 E.03848
G1 X100.733 Y85.175 E.00614
G1 X97.825 Y82.267 E.0884
G1 X97.04 Y81.847 E.01914
G1 X101.153 Y85.96 E.12502
G1 X101.443 Y86.503 E.01322
G1 X101.492 Y86.665 E.00364
G1 X96.335 Y81.508 E.15675
G1 X95.81 Y81.348 E.01178
G1 X101.652 Y87.19 E.17754
G1 X101.811 Y87.714 E.01178
G1 X95.286 Y81.189 E.19832
G1 X94.766 Y81.035 E.01165
G1 X101.965 Y88.234 E.21881
G1 X102.005 Y88.639 E.00876
G1 X94.361 Y80.995 E.23235
G1 X93.955 Y80.955 E.00876
G1 X102.045 Y89.045 E.24588
G1 X102.085 Y89.45 E.00876
G1 X93.55 Y80.915 E.25942
G1 X93.144 Y80.875 E.00876
G1 X102.125 Y89.856 E.27296
G1 X102.139 Y90 E.00311
G1 X102.118 Y90.214 E.00463
G1 X92.761 Y80.857 E.28441
G1 X92.395 Y80.857 E.00786
G1 X102.085 Y90.547 E.29452
G1 X102.052 Y90.88 E.00719
G1 X92.029 Y80.857 E.30463
G1 X91.664 Y80.857 E.00786
G1 X102.019 Y91.213 E.31475
G1 X101.987 Y91.546 E.00719
G1 X91.298 Y80.857 E.32486
G1 X90.933 Y80.857 E.00786
G1 X101.939 Y91.863 E.33452
G1 X101.854 Y92.144 E.0063
G1 X90.567 Y80.857 E.34305
G1 X90.202 Y80.857 E.00786
G1 X101.769 Y92.424 E.35157
G1 X101.684 Y92.705 E.0063
G1 X89.836 Y80.857 E.3601
G1 X89.471 Y80.857 E.00786
G1 X101.599 Y92.985 E.36862
G1 X101.514 Y93.266 E.0063
G1 X89.105 Y80.857 E.37714
G1 X88.74 Y80.857 E.00786
G1 X101.421 Y93.539 E.38545
G1 X101.294 Y93.777 E.00581
G1 X88.374 Y80.857 E.39269
G1 X88.009 Y80.857 E.00786
G1 X101.166 Y94.015 E.39993
G1 X101.039 Y94.253 E.00581
G1 X87.643 Y80.857 E.40717
G1 X87.277 Y80.857 E.00786
G1 X100.912 Y94.492 E.41441
G1 X100.784 Y94.73 E.00581
G1 X86.912 Y80.857 E.42165
G1 X86.546 Y80.857 E.00786
G1 X100.657 Y94.968 E.42889
G1 X100.599 Y95.077 E.00266
G1 X100.51 Y95.186 E.00302
G1 X86.181 Y80.857 E.43551
G1 X85.815 Y80.857 E.00786
G1 X100.345 Y95.387 E.44162
G1 X100.18 Y95.587 E.00558
G1 X85.45 Y80.857 E.44772
G1 X85.084 Y80.857 E.00786
G1 X100.015 Y95.788 E.45382
G1 X99.851 Y95.989 E.00558
G1 X84.719 Y80.857 E.45992
G1 X84.353 Y80.857 E.00786
G1 X99.686 Y96.19 E.46603
G1 X99.521 Y96.391 E.00558
G1 X83.988 Y80.857 E.47213
G1 X83.622 Y80.857 E.00786
G1 X99.333 Y96.568 E.47753
G1 X99.132 Y96.733 E.00558
G1 X83.256 Y80.857 E.48253
G1 X82.891 Y80.857 E.00786
G1 X98.932 Y96.898 E.48754
G1 X98.731 Y97.062 E.00558
G1 X82.525 Y80.857 E.49255
G1 X82.16 Y80.857 E.00786
G1 X98.53 Y97.227 E.49756
G1 X98.329 Y97.392 E.00558
G1 X81.794 Y80.857 E.50257
G1 X81.429 Y80.857 E.00786
G1 X98.128 Y97.557 E.50758
G1 X97.9 Y97.694 E.00573
G1 X81.063 Y80.857 E.51174
G1 X80.698 Y80.857 E.00786
G1 X97.662 Y97.821 E.51561
G1 X97.423 Y97.948 E.00581
G1 X80.332 Y80.857 E.51948
G1 X79.967 Y80.857 E.00786
G1 X97.185 Y98.076 E.52335
G1 X96.947 Y98.203 E.00581
G1 X79.601 Y80.857 E.52722
G1 X79.236 Y80.857 E.00786
G1 X96.709 Y98.33 E.53109
G1 X96.466 Y98.453 E.00585
G1 X78.87 Y80.857 E.53481
G1 X78.504 Y80.857 E.00786
G1 X96.185 Y98.538 E.5374
G1 X95.905 Y98.623 E.0063
G1 X78.139 Y80.857 E.53998
G1 X77.857 Y80.857 E.00606
G1 X77.857 Y80.941 E.0018
G1 X95.624 Y98.708 E.54003
G1 X95.344 Y98.793 E.0063
M73 P3 R88
G1 X77.857 Y81.306 E.53151
G1 X77.857 Y81.672 E.00786
G1 X95.063 Y98.878 E.52298
G1 X94.783 Y98.963 E.0063
G1 X77.857 Y82.037 E.51446
G1 X77.857 Y82.403 E.00786
G1 X94.45 Y98.996 E.50434
G1 X94.118 Y99.029 E.00719
G1 X77.857 Y82.768 E.49423
G1 X77.857 Y83.134 E.00786
M73 P3 R87
G1 X93.785 Y99.062 E.48412
G1 X93.452 Y99.094 E.00719
G1 X77.857 Y83.499 E.474
G1 X77.857 Y83.865 E.00786
G1 X93.119 Y99.127 E.46389
G1 X92.77 Y99.143 E.00752
G1 X77.857 Y84.23 E.45326
G1 X77.857 Y84.596 E.00786
G1 X92.404 Y99.143 E.44215
G1 X92.039 Y99.143 E.00786
G1 X77.857 Y84.961 E.43104
G1 X77.857 Y85.327 E.00786
G1 X91.673 Y99.143 E.41993
G1 X91.307 Y99.143 E.00786
G1 X77.857 Y85.693 E.40882
