; generated by PrusaSlicer 2.4.2+x64 on 2022-07-30 at 17:25:10 UTC


;
;

;
;
; 

; external perimeters extrusion width = 0.25mm
; perimeters extrusion width = 0.25mm
; infill extrusion width = 0.25mm
; solid infill extrusion width = 0.25mm
; top infill extrusion width = 0.25mm
; support material extrusion width = 0.25mm
; first layer extrusion width = 0.30mm

M73 P0 R198
M201 X2500 Y2500 Z400 E5000 ; sets maximum accelerations, mm/sec^2
M203 X180 Y180 Z12 E80 ; sets maximum feedrates, mm / sec
M204 P1250 R1250 T2500 ; sets acceleration (P, T) and retract acceleration (R), mm/sec^2
M205 X8.00 Y8.00 Z2.00 E10.00 ; sets the jerk limits, mm/sec
M205 S0 T0 ; sets the minimum extruding and travel feed rate, mm/sec
M107
;TYPE:Custom
M862.3 P "MINI" ; printer model check
G90 ; use absolute coordinates
M83 ; extruder relative mode
M104 S170 ; set extruder temp for bed leveling
M140 S60 ; set bed temp
M109 R170 ; wait for bed leveling temp
M190 S60 ; wait for bed temp
M204 T1250 ; set travel acceleration
G28 ; home all without mesh bed level
G29 ; mesh bed leveling 
M204 T2500 ; restore travel acceleration
M104 S215 ; set extruder temp
G92 E0
G1 Y-2 X179 F2400
G1 Z3 F720
M109 S215 ; wait for extruder temp

; intro line
G1 X170 F1000
G1 Z0.2 F720
G1 X110 E8 F600
G1 X40 E10 F400
G92 E0

M221 S95 ; set flow
G21 ; set units to millimeters
G90 ; use absolute coordinates
M83 ; use relative distances for extrusion
M900 K0.2 ; Filament gcode LA 1.5
; ; Filament gcode LA 1.0
M107
;LAYER_CHANGE
;Z:0.2
;HEIGHT:0.2
;BEFORE_LAYER_CHANGE
G92 E0.0
;0.2


G1 E-3 F4200
M73 P0 R197
G1 Z.15 F720
G1 Z.2
;AFTER_LAYER_CHANGE
;0.2
G1 Z.35
G1 X54.349 Y69.877 F9000
G1 Z.2 F720
G1 E3 F2400
M204 P800
;TYPE:Skirt/Brim
;WIDTH:0.3
G1 F1200
G1 X59.851 Y65.598 E.149
G1 X60.877 Y65.151 E.02393
G1 X98.962 Y59.008 E.82463
G1 X108.935 Y58.979 E.21319
G1 X110.257 Y59.407 E.02969
G1 X132.37 Y75.378 E.5831
G1 X133.171 Y76.438 E.0284
G1 X133.306 Y77.208 E.01669
G1 X133.306 Y104.021 E.57317
G1 X132.915 Y105.291 E.0284
G1 X132.028 Y106.055 E.02502
G1 X98.858 Y122.026 E.78697
G1 X97.878 Y122.249 E.02147
G1 X61.237 Y122.249 E.78327
G1 X59.967 Y121.858 E.0284
G1 X59.323 Y121.188 E.01986
G1 X47.037 Y101.532 E.4955
G1 X46.694 Y100.335 E.0266
G1 X46.694 Y77.208 E.49439
G1 X47.355 Y75.612 E.03693
G1 X48.794 Y74.197 E.04313
G1 X54.319 Y69.9 E.14963
M204 P1000
; printing object set_reset_latch_pipe_with_stage.stl id:0 copy 0
G1 E-2.1 F4200
;WIPE_START
G1 F7200
G1 X55.537 Y68.953 E-.855
;WIPE_END
G1 E-.045 F4200
G1 Z.35 F720
G1 X112.078 Y71.608 F9000
G1 Z.2 F720
G1 E3 F2400
M204 P800
;TYPE:Support material
G1 F1200
G1 X113.307 Y71.608 E.02626
G1 X113.307 Y72.836 E.02626
G1 X114.535 Y72.836 E.02626
G1 X114.535 Y74.065 E.02626
G1 X115.764 Y74.065 E.02626
G1 X115.764 Y75.293 E.02626
G1 X116.992 Y75.293 E.02626
G1 X116.992 Y76.522 E.02626
G1 X118.221 Y76.522 E.02626
G1 X118.221 Y77.208 E.01466
G1 X131.049 Y77.208 E.27422
G1 X131.049 Y104.021 E.57317
G1 X104.021 Y104.021 E.57775
G1 X104.021 Y106.478 E.05252
G1 X102.793 Y106.478 E.02626
G1 X102.793 Y107.707 E.02626
G1 X97.878 Y107.707 E.10505
G1 X97.878 Y119.992 E.26262
G1 X61.237 Y119.992 E.78327
G1 X61.237 Y97.336 E.48431
G1 X57.559 Y97.336 E.07862
G1 X57.558 Y97.65 E.00672
G1 X57.108 Y97.65 E.00962
G1 X57.108 Y100.335 E.05741
G1 X48.951 Y100.335 E.17436
G1 X48.951 Y91.95 E.17925
G1 X50.18 Y91.95 E.02626
G1 X50.18 Y90.721 E.02626
G1 X61.237 Y90.721 E.23635
G1 X61.237 Y82.593 E.17375
G1 X57.858 Y82.593 E.07222
G1 X57.857 Y82.907 E.00672
G1 X57.108 Y82.907 E.01602
G1 X57.108 Y85.593 E.05741
G1 X50.18 Y85.593 E.1481
G1 X50.18 Y84.364 E.02626
G1 X48.951 Y84.364 E.02626
G1 X48.951 Y77.208 E.15299
G1 X50.18 Y77.208 E.02626
G1 X50.18 Y75.979 E.02626
G1 X59.565 Y75.979 E.20063
G1 X59.565 Y78.979 E.06413
G1 X61.237 Y78.979 E.03573
G1 X61.237 Y67.379 E.24796
G1 X97.878 Y67.379 E.78327
G1 X97.878 Y72.293 E.10505
G1 X99.321 Y72.293 E.03084
G1 X99.321 Y71.065 E.02626
G1 X100.55 Y71.065 E.02626
G1 X100.55 Y69.622 E.03084
G1 X99.321 Y69.622 E.02626
G1 X99.321 Y61.236 E.17925
G1 X108.935 Y61.236 E.20551
G1 X108.935 Y67.922 E.14291
G1 X109.621 Y67.922 E.01466
G1 X109.621 Y69.151 E.02626
G1 X110.849 Y69.151 E.02626
G1 X110.849 Y70.272 E.02397
G1 X110.63 Y69.943 E.00845
G1 X110.557 Y69.87 E.00221
G1 X110.197 Y69.63 E.00925
G1 X110.101 Y69.59 E.00221
G1 X109.826 Y69.535 E.006
G1 X108.313 Y68.165 E.04363
G1 X107.775 Y68.165 E.01152
G1 X106.147 Y66.691 E.04694
G1 X105.441 Y67.395 E.02133
G1 X108.36 Y70.64 E.09331
G1 X107.095 Y71.937 E.03873
G1 X107.753 Y72.668 E.02103
G1 X109.002 Y71.683 E.03401
G1 X109.184 Y71.805 E.00467
G1 X109.279 Y71.844 E.00221
G1 X109.568 Y71.902 E.00628
G1 X112.621 Y74.955 E.0923
G1 X112.621 Y75.467 E.01095
G1 X114.362 Y77.208 E.05262
G1 X114.874 Y77.208 E.01095
G1 X118.877 Y81.189 E.1207
G1 X118.877 Y84.986 E.08117
G1 X118.859 Y85.901 E.01955
G1 X119.136 Y89.742 E.08233
G1 X120.111 Y89.745 E.02083
G1 X120.353 Y86.613 E.06714
G1 X120.391 Y85.894 E.01539
G1 X120.373 Y84.803 E.02333
G1 X120.373 Y80.678 E.08816
G1 X120.293 Y80.485 E.00446
G1 X117.978 Y78.17 E.06999
G1 X117.978 Y77.696 E.01012
G1 X115.424 Y75.078 E.07818
G1 X110.951 Y70.605 E.13522
G1 X110.902 Y70.379 E.00494
G1 X112.078 Y70.379 E.02514
G1 X112.078 Y71.569 E.02544
M204 P1000
G1 E-2.1 F4200
;WIPE_START
G1 F7200
G1 X112.078 Y70.379 E-.65945
G1 X111.725 Y70.379 E-.19555
;WIPE_END
G1 E-.045 F4200
G1 Z.35 F720
G1 X88.996 Y89.993 F9000
G1 Z.2 F720
G1 E3 F2400
M204 P800
G1 F1200
G1 X78.867 Y100.12 E.30617
G1 X73.677 Y105.369 E.15779
G1 X73.599 Y105.556 E.00433
G1 X73.566 Y107.374 E.03888
G1 X74.491 Y107.5 E.01997
G1 X74.767 Y106.425 E.02372
G1 X74.845 Y106.02 E.00881
G1 X78.957 Y101.863 E.12499
G1 X89.803 Y91.032 E.32766
G1 X91.419 Y89.005 E.05541
G1 X90.688 Y88.344 E.02108
G1 X89.024 Y89.966 E.04969
M204 P1000
G1 E-2.1 F4200
;WIPE_START
G1 F7200
G1 X90.129 Y88.889 E-.855
;WIPE_END
G1 E-.045 F4200
G1 Z.35 F720
G1 X99.756 Y99.947 F9000
G1 Z.2 F720
G1 E3 F2400
M204 P800
G1 F1200
G1 X99.501 Y99.996 E.00554
G1 X99.365 Y100.067 E.00328
G1 X94.904 Y104.401 E.13297
G1 X94.264 Y105.065 E.01971
G1 X89.884 Y105.35 E.09384
G1 X89.898 Y106.348 E.02134
G1 X93.696 Y106.486 E.08124
G1 X94.766 Y106.547 E.02293
G1 X94.977 Y106.466 E.00482
G1 X100.385 Y100.998 E.1644
G1 X100.462 Y100.773 E.00508
G1 X100.393 Y100.171 E.01295
G1 X100.033 Y99.901 E.00962
G1 X99.794 Y99.94 E.00518
M204 P1000
G1 E-2.1 F4200
;WIPE_START
G1 F7200
G1 X100.033 Y99.901 E-.13437
G1 X100.393 Y100.171 E-.24949
G1 X100.462 Y100.773 E-.33581
G1 X100.385 Y100.998 E-.13169
G1 X100.381 Y101.003 E-.00363
;WIPE_END
G1 E-.045 F4200
G1 Z.35 F720
G1 X59.616 Y95.109 F9000
G1 Z.2 F720
G1 E3 F2400
M204 P800
G1 F1200
G1 X55.764 Y95.387 E.08255
G1 X55.761 Y96.361 E.02083
G1 X57.561 Y96.5 E.03858
G1 X57.56 Y96.887 E.00827
G1 X59.604 Y97.003 E.04376
G1 X61.237 Y97.004 E.0349
G1 X61.237 Y96.641 E.00774
G1 X64.635 Y96.641 E.07264
G1 X70.296 Y96.504 E.12106
G1 X70.491 Y96.422 E.0045
G1 X70.66 Y96.251 E.00516
G1 X70.736 Y96.004 E.00552
G1 X70.677 Y95.693 E.00675
G1 X70.405 Y95.454 E.00774
G1 X65.553 Y95.182 E.10389
G1 X64.636 Y95.109 E.01966
G1 X59.654 Y95.109 E.10649
M204 P1000
G1 E-2.1 F4200
;WIPE_START
G1 F7200
G1 X61.197 Y95.109 E-.855
;WIPE_END
G1 E-.045 F4200
G1 Z.35 F720
G1 X59.565 Y79.746 F9000
G1 Z.2 F720
G1 E3 F2400
M204 P800
G1 F1200
G1 X59.565 Y80.112 E.0078
G1 X55.764 Y80.387 E.08147
G1 X55.761 Y81.361 E.02083
G1 X57.861 Y81.523 E.04501
G1 X57.86 Y81.91 E.00826
G1 X59.604 Y82.003 E.03734
G1 X61.237 Y82.004 E.0349
G1 X61.237 Y81.641 E.00774
G1 X64.646 Y81.641 E.07288
G1 X65.535 Y81.594 E.01904
G1 X68.484 Y81.36 E.06322
G1 X68.484 Y80.39 E.02074
G1 X65.535 Y80.156 E.06322
G1 X64.646 Y80.109 E.01904
G1 X61.237 Y80.109 E.07288
G1 X61.237 Y79.746 E.00774
G1 X59.604 Y79.746 E.0349
M204 P1000
G1 E-2.1 F4200
;WIPE_START
G1 F7200
G1 X61.146 Y79.746 E-.855
;WIPE_END
G1 E-.045 F4200
G1 Z.35 F720
G1 X89.844 Y80.379 F9000
G1 Z.2 F720
G1 E3 F2400
M204 P800
G1 F1200
G1 X89.844 Y81.371 E.02121
G1 X94.619 Y81.641 E.10223
G1 X99.936 Y81.628 E.11367
G1 X100.403 Y81.534 E.01017
G1 X100.639 Y81.177 E.00916
G1 X100.515 Y80.553 E.01359
G1 X100.236 Y80.318 E.00781
G1 X95.614 Y80.173 E.09884
G1 X94.611 Y80.109 E.02148
G1 X89.882 Y80.377 E.10125
M204 P1000
G1 E-2.1 F4200
;WIPE_START
G1 F7200
G1 X91.423 Y80.289 E-.855
;WIPE_END
G1 E-.045 F4200
G1 Z.35 F720
G1 X112.621 Y76.45 F9000
G1 Z.2 F720
G1 E3 F2400
M204 P800
G1 F1200
G1 X112.621 Y77.208 E.01619
G1 X113.378 Y77.208 E.01619
G1 X113.378 Y76.45 E.01619
G1 X112.659 Y76.45 E.01536
M204 P1000
G1 E-2.1 F4200
;WIPE_START
G1 F7200
G1 X113.378 Y76.45 E-.39822
G1 X113.378 Y77.208 E-.41959
G1 X113.311 Y77.208 E-.03719
;WIPE_END
G1 E-.045 F4200
G1 Z.35 F720
G1 X130.561 Y103.905 F9000
G1 Z.2 F720
G1 E3 F2400
M204 P800
G1 F1200
G1 X130.561 Y77.439 E.56575
G1 X130.276 Y77.439 E.00611
G1 X130.276 Y103.79 E.56328
G1 X129.99 Y103.79 E.00611
G1 X129.99 Y77.439 E.56328
G1 X129.705 Y77.439 E.00611
M73 P0 R196
G1 X129.705 Y103.79 E.56328
G1 X129.419 Y103.79 E.00611
G1 X129.419 Y77.439 E.56328
G1 X129.133 Y77.439 E.00611
G1 X129.133 Y103.79 E.56328
G1 X128.848 Y103.79 E.00611
G1 X128.848 Y77.439 E.56328
G1 X128.562 Y77.439 E.00611
G1 X128.562 Y103.79 E.56328
G1 X128.276 Y103.79 E.00611
G1 X128.276 Y77.439 E.56328
G1 X127.991 Y77.439 E.00611
G1 X127.991 Y103.79 E.56328
G1 X127.705 Y103.79 E.00611
G1 X127.705 Y77.439 E.56328
G1 X127.419 Y77.439 E.00611
G1 X127.419 Y103.79 E.56328
G1 X127.134 Y103.79 E.00611
G1 X127.134 Y77.439 E.56328
G1 X126.848 Y77.439 E.00611
G1 X126.848 Y103.79 E.56328
G1 X126.562 Y103.79 E.00611
G1 X126.562 Y77.439 E.56328
G1 X126.277 Y77.439 E.00611
G1 X126.277 Y103.79 E.56328
G1 X125.991 Y103.79 E.00611
G1 X125.991 Y77.439 E.56328
G1 X125.706 Y77.439 E.00611
G1 X125.705 Y103.79 E.56328
G1 X125.42 Y103.79 E.00611
G1 X125.42 Y77.439 E.56328
G1 X125.134 Y77.439 E.00611
G1 X125.134 Y103.79 E.56328
G1 X124.849 Y103.79 E.00611
G1 X124.849 Y77.439 E.56328
G1 X124.563 Y77.439 E.00611
G1 X124.563 Y103.79 E.56328
G1 X124.277 Y103.79 E.00611
G1 X124.277 Y77.439 E.56328
G1 X123.992 Y77.439 E.00611
G1 X123.992 Y103.79 E.56328
G1 X123.706 Y103.79 E.00611
G1 X123.706 Y77.439 E.56328
G1 X123.42 Y77.439 E.00611
G1 X123.42 Y103.79 E.56328
G1 X123.135 Y103.79 E.00611
G1 X123.135 Y77.439 E.56328
G1 X122.849 Y77.439 E.00611
G1 X122.849 Y103.79 E.56328
G1 X122.563 Y103.79 E.00611
G1 X122.563 Y77.439 E.56328
G1 X122.278 Y77.439 E.00611
G1 X122.278 Y103.79 E.56328
G1 X121.992 Y103.79 E.00611
G1 X121.992 Y77.439 E.56328
G1 X121.706 Y77.439 E.00611
G1 X121.706 Y103.79 E.56328
G1 X121.421 Y103.79 E.00611
G1 X121.421 Y77.439 E.56328
G1 X121.135 Y77.439 E.00611
G1 X121.135 Y103.79 E.56328
G1 X120.85 Y103.79 E.00611
G1 X120.85 Y77.439 E.56328
G1 X120.564 Y77.439 E.00611
G1 X120.564 Y103.79 E.56328
G1 X120.278 Y103.79 E.00611
G1 X120.278 Y89.976 E.29528
G1 X119.993 Y89.976 E.00611
G1 X119.993 Y103.79 E.29529
G1 X119.707 Y103.79 E.00611
M73 P1 R196
G1 X119.707 Y89.975 E.29531
G1 X119.421 Y89.974 E.00611
G1 X119.421 Y103.79 E.29532
G1 X119.136 Y103.79 E.00611
G1 X119.136 Y89.973 E.29534
G1 X118.921 Y89.973 E.00459
G1 X118.85 Y88.988 E.02111
G1 X118.85 Y103.79 E.3164
G1 X118.564 Y103.79 E.00611
G1 X118.564 Y81.208 E.48271
G1 X118.279 Y80.931 E.00851
G1 X118.279 Y103.79 E.48864
G1 X117.993 Y103.79 E.00611
G1 X117.993 Y80.653 E.49458
G1 X117.707 Y80.369 E.00862
G1 X117.707 Y103.79 E.50066
G1 X117.422 Y103.79 E.00611
G1 X117.422 Y80.083 E.50676
G1 X117.136 Y79.797 E.00864
G1 X117.136 Y103.79 E.51287
G1 X116.851 Y103.79 E.00611
G1 X116.851 Y79.512 E.51897
G1 X116.565 Y79.226 E.00864
G1 X116.565 Y103.79 E.52508
G1 X116.279 Y103.79 E.00611
G1 X116.279 Y78.94 E.53119
G1 X115.994 Y78.655 E.00864
M73 P1 R195
G1 X115.994 Y103.79 E.53729
G1 X115.708 Y103.79 E.00611
G1 X115.708 Y78.369 E.5434
G1 X115.422 Y78.083 E.00864
G1 X115.422 Y103.79 E.5495
G1 X115.137 Y103.79 E.00611
G1 X115.137 Y77.798 E.55561
G1 X114.851 Y77.512 E.00864
G1 X114.851 Y103.79 E.56172
G1 X114.565 Y103.79 E.00611
G1 X114.565 Y77.439 E.56328
G1 X114.28 Y77.439 E.00611
G1 X114.28 Y103.79 E.56328
G1 X113.994 Y103.79 E.00611
G1 X113.994 Y77.167 E.56909
G1 X113.708 Y76.882 E.00864
G1 X113.708 Y103.79 E.57519
G1 X113.423 Y103.79 E.00611
G1 X113.423 Y77.439 E.56328
G1 X113.137 Y77.439 E.00611
G1 X113.137 Y103.79 E.56328
G1 X112.852 Y103.79 E.00611
G1 X112.852 Y77.439 E.56328
G1 X112.566 Y77.439 E.00611
G1 X112.566 Y103.79 E.56328
G1 X112.28 Y103.79 E.00611
G1 X112.28 Y74.941 E.61667
G1 X111.995 Y74.656 E.00864
G1 X111.995 Y103.79 E.62278
G1 X111.709 Y103.79 E.00611
G1 X111.709 Y74.37 E.62888
G1 X111.423 Y74.084 E.00864
G1 X111.423 Y103.79 E.63499
G1 X111.138 Y103.79 E.00611
G1 X111.138 Y73.799 E.64109
G1 X110.852 Y73.513 E.00864
G1 X110.852 Y103.79 E.6472
G1 X110.566 Y103.79 E.00611
G1 X110.566 Y73.227 E.65331
G1 X110.281 Y72.942 E.00864
G1 X110.281 Y103.79 E.65941
G1 X109.995 Y103.79 E.00611
G1 X109.995 Y72.656 E.66552
G1 X109.709 Y72.371 E.00864
G1 X109.709 Y103.79 E.67162
G1 X109.424 Y103.79 E.00611
G1 X109.424 Y72.109 E.67722
G1 X109.138 Y72.036 E.0063
G1 X109.138 Y103.79 E.67877
G1 X108.853 Y103.79 E.00611
G1 X108.853 Y72.096 E.6775
G1 X108.567 Y72.321 E.00778
G1 X108.567 Y103.79 E.67268
G1 X108.281 Y103.79 E.00611
G1 X108.281 Y72.546 E.66787
G1 X107.996 Y72.772 E.00778
G1 X107.996 Y103.79 E.66305
G1 X107.71 Y103.79 E.00611
G1 X107.71 Y72.967 E.65888
G1 X107.424 Y72.649 E.00913
G1 X107.424 Y103.79 E.66566
G1 X107.139 Y103.79 E.00611
G1 X107.139 Y72.159 E.67615
M204 P1000
G1 E-2.1 F4200
;WIPE_START
G1 F7200
G1 X107.139 Y73.702 E-.855
;WIPE_END
G1 E-.045 F4200
G1 Z.35 F720
G1 X120.278 Y80.307 F9000
G1 Z.2 F720
G1 E3 F2400
M204 P800
G1 F1200
G1 X120.278 Y77.439 E.0613
G1 X119.993 Y77.439 E.00611
G1 X119.993 Y79.858 E.0517
G1 X119.707 Y79.572 E.00864
G1 X119.707 Y77.439 E.0456
G1 X119.421 Y77.439 E.00611
G1 X119.421 Y79.286 E.03949
G1 X119.136 Y79.001 E.00864
G1 X119.136 Y77.439 E.03338
G1 X118.85 Y77.439 E.00611
G1 X118.85 Y78.715 E.02728
G1 X118.564 Y78.429 E.00864
G1 X118.564 Y77.439 E.02117
G1 X118.279 Y77.439 E.00611
G1 X118.279 Y78.307 E.01856
M204 P1000
G1 E-2.1 F4200
;WIPE_START
G1 F7200
G1 X118.279 Y77.439 E-.48123
G1 X118.564 Y77.439 E-.15829
G1 X118.564 Y77.828 E-.21547
;WIPE_END
G1 E-.045 F4200
G1 Z.35 F720
G1 X117.707 Y77.253 F9000
G1 Z.2 F720
G1 E3 F2400
M204 P800
G1 F1200
G1 X117.707 Y76.753 E.0107
G1 X117.422 Y76.753 E.00611
G1 X117.422 Y76.961 E.00443
M204 P1000
G1 E-2.1 F4200
;WIPE_START
G1 F7200
G1 X117.422 Y76.753 E-.11497
G1 X117.707 Y76.753 E-.15829
G1 X117.707 Y77.253 E-.27726
;WIPE_END
G1 E-.34947 F4200
G1 Z.35 F720
G1 X112.852 Y76.335 F9000
G1 Z.2 F720
G1 E3 F2400
M204 P800
G1 F1200
G1 X112.852 Y76.025 E.00663
G1 X112.566 Y75.739 E.00864
G1 X112.566 Y76.335 E.01273
M204 P1000
G1 E-2.1 F4200
;WIPE_START
G1 F7200
G1 X112.566 Y75.739 E-.33006
G1 X112.852 Y76.025 E-.22386
G1 X112.852 Y76.335 E-.17176
;WIPE_END
G1 E-.17432 F4200
G1 Z.35 F720
G1 X109.138 Y68.756 F9000
G1 Z.2 F720
G1 E3 F2400
M204 P800
G1 F1200
G1 X109.138 Y68.153 E.01288
G1 X108.853 Y68.153 E.00611
G1 X108.853 Y68.341 E.00401
G1 X108.567 Y68.082 E.00824
G1 X108.567 Y61.468 E.14139
G1 X108.281 Y61.468 E.00611
G1 X108.281 Y67.933 E.13821
G1 X107.996 Y67.933 E.00611
G1 X107.996 Y61.468 E.13821
G1 X107.71 Y61.468 E.00611
G1 X107.71 Y67.794 E.13523
G1 X107.424 Y67.535 E.00824
G1 X107.424 Y61.468 E.1297
G1 X107.139 Y61.468 E.00611
G1 X107.139 Y67.276 E.12417
G1 X106.853 Y67.018 E.00824
G1 X106.853 Y61.468 E.11863
G1 X106.567 Y61.468 E.00611
G1 X106.567 Y66.759 E.1131
G1 X106.282 Y66.5 E.00824
G1 X106.282 Y61.468 E.10757
G1 X105.996 Y61.468 E.00611
G1 X105.996 Y66.515 E.10789
G1 X105.71 Y66.799 E.00862
G1 X105.71 Y61.468 E.11397
G1 X105.425 Y61.468 E.00611
G1 X105.425 Y67.247 E.12355
M204 P1000
G1 E-2.1 F4200
;WIPE_START
G1 F7200
G1 X105.425 Y65.705 E-.855
;WIPE_END
G1 E-.045 F4200
G1 Z.35 F720
G1 X107.996 Y70.848 F9000
G1 Z.2 F720
G1 E3 F2400
M204 P800
G1 F1200
G1 X107.996 Y70.581 E.0057
G1 X107.71 Y70.264 E.00913
G1 X107.71 Y70.975 E.0152
G1 X107.424 Y71.268 E.00874
G1 X107.424 Y69.946 E.02825
G1 X107.139 Y69.629 E.00913
G1 X107.139 Y71.726 E.04484
M204 P1000
G1 E-2.1 F4200
