; generated by PrusaSlicer 2.6.0-alpha3+MacOS-x64 on 2023-05-02 at 06:09:27 UTC


;
;

;
;
; 

; external perimeters extrusion width = 0.45mm
; perimeters extrusion width = 0.45mm
; infill extrusion width = 0.45mm
; solid infill extrusion width = 0.45mm
; top infill extrusion width = 0.40mm
; first layer extrusion width = 0.42mm

; external perimeters extrusion width = 0.45mm
; perimeters extrusion width = 0.45mm
; infill extrusion width = 0.45mm
; solid infill extrusion width = 0.45mm
; top infill extrusion width = 0.40mm
; first layer extrusion width = 0.42mm

; external perimeters extrusion width = 0.45mm
; perimeters extrusion width = 0.45mm
; infill extrusion width = 0.45mm
; solid infill extrusion width = 0.45mm
; top infill extrusion width = 0.40mm
; first layer extrusion width = 0.42mm

; external perimeters extrusion width = 0.45mm
; perimeters extrusion width = 0.45mm
; infill extrusion width = 0.45mm
; solid infill extrusion width = 0.45mm
; top infill extrusion width = 0.40mm
; first layer extrusion width = 0.42mm

; external perimeters extrusion width = 0.45mm
; perimeters extrusion width = 0.45mm
; infill extrusion width = 0.45mm
; solid infill extrusion width = 0.45mm
; top infill extrusion width = 0.40mm
; first layer extrusion width = 0.42mm

; external perimeters extrusion width = 0.45mm
; perimeters extrusion width = 0.45mm
; infill extrusion width = 0.45mm
; solid infill extrusion width = 0.45mm
; top infill extrusion width = 0.40mm
; first layer extrusion width = 0.42mm

M73 P0 R213
M201 X2500 Y2500 Z400 E5000 ; sets maximum accelerations, mm/sec^2
M203 X180 Y180 Z12 E80 ; sets maximum feedrates, mm / sec
M204 P1250 R1250 T2500 ; sets acceleration (P, T) and retract acceleration (R), mm/sec^2
M205 X8.00 Y8.00 Z2.00 E10.00 ; sets the jerk limits, mm/sec
M205 S0 T0 ; sets the minimum extruding and travel feed rate, mm/sec
M107
;TYPE:Custom
M862.3 P "MINI" ; printer model check
G90 ; use absolute coordinates
M83 ; extruder relative mode
M104 S170 ; set extruder temp for bed leveling
M140 S30 ; set bed temp
M109 R170 ; wait for bed leveling temp
M190 S30 ; wait for bed temp
M204 T1250 ; set travel acceleration
G28 ; home all without mesh bed level
G29 ; mesh bed leveling 
M204 T2500 ; restore travel acceleration
M104 S245 ; set extruder temp
G92 E0
G1 Y-2 X179 F2400
G1 Z3 F720
M109 S245 ; wait for extruder temp

; intro line
G1 X170 F1000
G1 Z0.2 F720
G1 X110 E8 F900
G1 X40 E10 F700
G92 E0

M221 S95 ; set flow
G21 ; set units to millimeters
G90 ; use absolute coordinates
M83 ; use relative distances for extrusion
M900 K0.2 ; Filament gcode LA 1.5
; ; Filament gcode LA 1.0
M107
;LAYER_CHANGE
;Z:0.2
;HEIGHT:0.2
;BEFORE_LAYER_CHANGE
G92 E0.0
;0.2


G1 E-3.2 F4200
G1 Z.2 F720
;AFTER_LAYER_CHANGE
;0.2
G1 Z.4
G1 X11.291 Y13.109 F9000
G1 Z.2 F720
G1 E3.2 F2400
M204 P800
;TYPE:Skirt/Brim
;WIDTH:0.42
G1 F1200
G1 X12.336 Y12.233 E.05131
G1 X13.276 Y12.039 E.03611
G1 X68.284 Y12.039 E2.06968
G1 X164.125 Y12.373 E3.60605
G1 X165.43 Y12.769 E.05131
G1 X166.303 Y13.818 E.05135
G1 X166.493 Y14.734 E.0352
G1 X167.337 Y138.746 E4.66608
G1 X167.337 Y163.763 E.94127
G1 X166.945 Y165.07 E.05134
G1 X165.9 Y165.946 E.05131
G1 X164.96 Y166.14 E.03611
G1 X109.96 Y166.14 E2.06938
G1 X14.112 Y165.806 E3.60632
G1 X12.806 Y165.41 E.05135
G1 X11.933 Y164.361 E.05135
G1 X11.743 Y163.451 E.03498
G1 X11.196 Y102.417 E2.29651
G1 X10.899 Y39.428 E2.37
G1 X10.899 Y14.416 E.94108
G1 X11.274 Y13.167 E.04907
M204 P1000
; printing object val hoder bi 8_3_6.STL id:0 copy 0
G1 E-2.24 F4200
;WIPE_START
G1 F7200
G1 X12.336 Y12.233 E-.78375
G1 X12.647 Y12.169 E-.17625
;WIPE_END
G1 Z.4 F720
G1 X159.42 Y16.291 F9000
G1 Z.2 F720
G1 E3.2 F2400
M204 P800
;TYPE:Perimeter
;WIDTH:0.419999
G1 F1200
G1 X162.575 Y16.291 E.11871
G1 X162.575 Y38.209 E.82467
G1 X110.658 Y38.209 E1.95338
G1 X110.658 Y16.291 E.82467
G1 X159.36 Y16.291 E1.83242
M204 P1000
G1 X159.42 Y15.914 F9000
M204 P800
M73 P0 R212
G1 F1200
G1 X162.952 Y15.914 E.13289
G1 X162.952 Y38.586 E.85304
G1 X110.28 Y38.586 E1.98179
G1 X110.28 Y15.914 E.85304
G1 X159.36 Y15.914 E1.84664
M204 P1000
G1 X159.42 Y15.537 F9000
M204 P800
G1 F1200
G1 X163.329 Y15.537 E.14708
G1 X163.329 Y38.963 E.88141
G1 X109.903 Y38.963 E2.01016
G1 X109.903 Y15.537 E.88141
G1 X159.36 Y15.537 E1.86082
M204 P1000
G1 X159.42 Y15.16 F9000
M204 P800
;TYPE:External perimeter
G1 F1200
G1 X163.706 Y15.16 E.16126
G1 X163.706 Y39.34 E.90977
G1 X109.526 Y39.34 E2.03853
G1 X109.526 Y15.16 E.90977
G1 X159.36 Y15.16 E1.87501
M204 P1000
G1 X159.669 Y15.472 F9000
G1 E-3.2 F4200
G1 Z.4 F720
G1 X118.195 Y18.777 F9000
G1 Z.2 F720
G1 E3.2 F2400
M204 P800
;TYPE:Perimeter
G1 F1200
G1 X118.347 Y18.808 E.00584
G1 X118.896 Y19.002 E.02191
G1 X119.285 Y19.219 E.01676
G1 X119.738 Y19.585 E.02191
G1 X120.033 Y19.92 E.01679
G1 X120.338 Y20.416 E.02191
G1 X120.505 Y20.83 E.0168
G1 X120.627 Y21.399 E.0219
G1 X120.646 Y21.844 E.01676
G1 X120.572 Y22.422 E.02192
G1 X120.442 Y22.848 E.01676
G1 X120.179 Y23.368 E.02193
G1 X119.914 Y23.727 E.01679
G1 X119.494 Y24.13 E.0219
G1 X119.124 Y24.379 E.01678
G1 X118.593 Y24.619 E.02192
G1 X118.216 Y24.726 E.01474
G1 X117.685 Y24.79 E.02012
G1 X117.017 Y24.726 E.02525
G1 X116.467 Y24.564 E.02157
G1 X116.091 Y24.361 E.01608
G1 X115.517 Y23.952 E.02652
G1 X115.017 Y23.31 E.03062
G1 X114.817 Y22.912 E.01676
G1 X114.646 Y22.355 E.02192
G1 X114.589 Y21.913 E.01677
G1 X114.614 Y21.331 E.02192
G1 X114.708 Y20.895 E.01678
G1 X114.925 Y20.355 E.0219
G1 X115.159 Y19.975 E.01679
G1 X115.544 Y19.538 E.02191
G1 X115.891 Y19.258 E.01678
G1 X116.399 Y18.974 E.0219
G1 X116.811 Y18.827 E.01646
G1 X117.346 Y18.731 E.02045
G1 X117.99 Y18.735 E.02423
G1 X118.136 Y18.765 E.00561
M204 P1000
G1 X118.17 Y19.174 F9000
M204 P800
G1 F1200
G1 X118.77 Y19.357 E.0236
G1 X119.048 Y19.513 E.01199
G1 X119.501 Y19.878 E.02189
G1 X119.712 Y20.118 E.01202
G1 X120.017 Y20.613 E.02188
G1 X120.136 Y20.909 E.012
G1 X120.259 Y21.478 E.0219
G1 X120.272 Y21.796 E.01197
G1 X120.198 Y22.374 E.02192
G1 X120.072 Y22.744 E.01471
G1 X119.843 Y23.198 E.01913
G1 X119.631 Y23.476 E.01315
G1 X119.233 Y23.857 E.02073
G1 X118.969 Y24.036 E.012
G1 X118.438 Y24.276 E.02192
G1 X118.168 Y24.352 E.01055
G1 X117.665 Y24.413 E.01906
G1 X117.064 Y24.352 E.02273
G1 X116.532 Y24.184 E.02099
G1 X115.897 Y23.774 E.02844
G1 X115.667 Y23.554 E.01198
G1 X115.321 Y23.086 E.0219
G1 X115.177 Y22.801 E.01201
G1 X115.007 Y22.245 E.02188
G1 X114.966 Y21.929 E.01199
G1 X114.991 Y21.347 E.02192
G1 X115.058 Y21.035 E.01201
G1 X115.275 Y20.495 E.0219
G1 X115.442 Y20.224 E.01198
G1 X115.827 Y19.787 E.02191
G1 X116.075 Y19.587 E.01199
G1 X116.583 Y19.303 E.0219
G1 X116.877 Y19.198 E.01175
G1 X117.411 Y19.103 E.02041
G1 X117.967 Y19.111 E.02092
G1 X118.113 Y19.156 E.00575
M204 P1000
G1 X118.073 Y19.529 F9000
M204 P800
G1 F1200
G1 X118.645 Y19.713 E.02261
G1 X119.264 Y20.172 E.02899
G1 X119.696 Y20.811 E.02902
G1 X119.844 Y21.346 E.02089
G1 X119.898 Y21.749 E.0153
G1 X119.824 Y22.326 E.02189
G1 X119.735 Y22.574 E.00991
G1 X119.506 Y23.029 E.01917
G1 X119.37 Y23.204 E.00834
G1 X118.972 Y23.585 E.02073
G1 X118.814 Y23.692 E.00718
G1 X118.283 Y23.932 E.02192
G1 X117.739 Y24.026 E.02077
G1 X117.112 Y23.978 E.02366
G1 X116.648 Y23.822 E.01842
G1 X116.108 Y23.462 E.02442
G1 X115.97 Y23.33 E.00719
G1 X115.624 Y22.861 E.02193
G1 X115.538 Y22.691 E.00717
G1 X115.367 Y22.134 E.02192
G1 X115.343 Y21.945 E.00717
G1 X115.368 Y21.363 E.02192
G1 X115.625 Y20.636 E.02901
G1 X115.725 Y20.473 E.0072
G1 X116.11 Y20.036 E.02191
G1 X116.767 Y19.632 E.02902
G1 X117.474 Y19.474 E.02726
G1 X117.943 Y19.488 E.01765
G1 X118.016 Y19.511 E.00288
M204 P1000
G1 X118.104 Y19.922 F9000
M204 P800
;TYPE:External perimeter
G1 F1200
G1 X118.519 Y20.068 E.01655
G1 X119.028 Y20.465 E.02429
G1 X119.375 Y21.009 E.02428
G1 X119.521 Y21.637 E.02426
G1 X119.45 Y22.278 E.02427
G1 X119.169 Y22.859 E.02428
G1 X118.714 Y23.31 E.0241
G1 X118.074 Y23.604 E.0265
G1 X117.593 Y23.659 E.01822
G1 X117.12 Y23.594 E.01796
G1 X116.724 Y23.423 E.01623
G1 X116.295 Y23.13 E.01955
G1 X115.927 Y22.637 E.02315
G1 X115.728 Y22.024 E.02425
G1 X115.744 Y21.379 E.02428
G1 X115.975 Y20.776 E.0243
G1 X116.393 Y20.285 E.02426
G1 X116.951 Y19.961 E.02428
G1 X117.541 Y19.846 E.02262
G1 X117.97 Y19.874 E.01618
G1 X118.047 Y19.902 E.00308
M204 P1000
G1 X118.389 Y19.642 F9000
G1 E-3.2 F4200
G1 Z.4 F720
G1 X128.891 Y22.78 F9000
G1 Z.2 F720
G1 E3.2 F2400
M204 P800
;TYPE:Perimeter
G1 F1200
G1 X129.437 Y22.718 E.02068
G1 X130.248 Y22.757 E.03055
G1 X131.022 Y22.934 E.02987
G1 X131.731 Y23.234 E.02897
G1 X132.38 Y23.649 E.02898
G1 X132.948 Y24.168 E.02895
G1 X133.421 Y24.776 E.02898
G1 X133.785 Y25.454 E.02895
G1 X134.028 Y26.184 E.02895
G1 X134.145 Y26.945 E.02897
G1 X134.131 Y27.715 E.02898
G1 X133.987 Y28.471 E.02896
G1 X133.718 Y29.193 E.02899
G1 X133.367 Y29.8 E.02638
G1 X132.954 Y30.31 E.02469
G1 X132.675 Y30.603 E.01522
G1 X132.25 Y30.946 E.02055
G1 X131.587 Y31.338 E.02898
G1 X130.868 Y31.612 E.02895
G1 X130.117 Y31.76 E.0288
G1 X129.338 Y31.779 E.02932
G1 X128.581 Y31.669 E.02878
G1 X127.849 Y31.43 E.02897
G1 X127.168 Y31.072 E.02895
G1 X126.558 Y30.603 E.02895
G1 X126.035 Y30.038 E.02897
G1 X125.651 Y29.45 E.02642
G1 X125.368 Y28.82 E.02599
G1 X125.245 Y28.472 E.01389
G1 X125.13 Y27.937 E.02059
G1 X125.078 Y27.169 E.02896
G1 X125.157 Y26.403 E.02897
G1 X125.364 Y25.662 E.02895
G1 X125.694 Y24.966 E.02898
G1 X126.136 Y24.336 E.02896
G1 X126.679 Y23.79 E.02897
G1 X127.306 Y23.343 E.02897
G1 X127.999 Y23.009 E.02894
G1 X128.739 Y22.797 E.02896
G1 X128.831 Y22.786 E.00349
M204 P1000
G1 X128.939 Y23.15 F9000
M204 P800
G1 F1200
G1 X129.468 Y23.094 E.02001
G1 X130.223 Y23.133 E.02844
G1 X130.927 Y23.299 E.02721
G1 X131.576 Y23.578 E.02658
G1 X132.168 Y23.962 E.02655
G1 X132.687 Y24.44 E.02655
G1 X133.118 Y25 E.02659
G1 X133.448 Y25.624 E.02656
G1 X133.668 Y26.295 E.02657
G1 X133.771 Y26.993 E.02655
G1 X133.754 Y27.699 E.02657
G1 X133.619 Y28.392 E.02656
G1 X133.368 Y29.052 E.02657
G1 X133.045 Y29.602 E.024
G1 X132.666 Y30.067 E.02257
G1 X132.438 Y30.309 E.01251
G1 X132.013 Y30.653 E.02057
G1 X131.403 Y31.009 E.02657
G1 X130.742 Y31.257 E.02656
G1 X130.054 Y31.389 E.02636
G1 X129.338 Y31.402 E.02694
G1 X128.645 Y31.297 E.02637
G1 X127.975 Y31.075 E.02656
G1 X127.352 Y30.742 E.02658
G1 X126.794 Y30.31 E.02655
G1 X126.318 Y29.789 E.02655
G1 X125.972 Y29.253 E.024
G1 X125.715 Y28.673 E.02387
G1 X125.614 Y28.392 E.01123
G1 X125.499 Y27.858 E.02055
G1 X125.455 Y27.153 E.02658
G1 X125.531 Y26.451 E.02657
G1 X125.725 Y25.772 E.02657
G1 X126.031 Y25.136 E.02656
G1 X126.439 Y24.56 E.02656
G1 X126.94 Y24.062 E.02658
G1 X127.517 Y23.656 E.02655
G1 X128.155 Y23.353 E.02657
G1 X128.879 Y23.157 E.02822
M204 P1000
G1 X128.984 Y23.521 F9000
M204 P800
G1 F1200
G1 X129.5 Y23.47 E.01951
G1 X130.198 Y23.509 E.0263
G1 X130.832 Y23.664 E.02456
G1 X131.421 Y23.921 E.02418
G1 X131.957 Y24.274 E.02415
G1 X132.427 Y24.713 E.0242
G1 X132.815 Y25.224 E.02414
G1 X133.111 Y25.794 E.02417
G1 X133.307 Y26.405 E.02414
G1 X133.397 Y27.041 E.02417
G1 X133.378 Y27.683 E.02417
G1 X133.25 Y28.312 E.02415
G1 X133.018 Y28.911 E.02417
G1 X132.724 Y29.404 E.0216
G1 X132.378 Y29.823 E.02045
G1 X132.201 Y30.016 E.00985
G1 X131.776 Y30.36 E.02057
G1 X131.219 Y30.68 E.02417
G1 X130.617 Y30.901 E.02413
G1 X129.99 Y31.017 E.02399
G1 X129.338 Y31.025 E.02453
G1 X128.709 Y30.926 E.02396
G1 X128.101 Y30.719 E.02417
G1 X127.536 Y30.413 E.02418
G1 X127.031 Y30.016 E.02417
G1 X126.601 Y29.54 E.02414
G1 X126.293 Y29.055 E.02162
G1 X125.982 Y28.313 E.03027
G1 X125.867 Y27.778 E.02059
G1 X125.832 Y27.137 E.02415
G1 X125.905 Y26.499 E.02416
G1 X126.086 Y25.883 E.02416
G1 X126.367 Y25.306 E.02415
G1 X126.743 Y24.785 E.02417
G1 X127.201 Y24.334 E.02418
G1 X127.728 Y23.968 E.02414
G1 X128.31 Y23.696 E.02417
G1 X128.924 Y23.528 E.02395
M204 P1000
G1 X129.059 Y23.888 F9000
M204 P800
;TYPE:External perimeter
G1 F1200
G1 X129.532 Y23.845 E.01787
G1 X130.173 Y23.886 E.02417
G1 X130.737 Y24.029 E.02189
G1 X131.265 Y24.265 E.02176
G1 X131.746 Y24.587 E.02178
G1 X132.166 Y24.985 E.02177
G1 X132.512 Y25.448 E.02175
G1 X132.775 Y25.963 E.02176
G1 X132.946 Y26.516 E.02178
G1 X133.023 Y27.089 E.02175
G1 X133.001 Y27.667 E.02176
G1 X132.882 Y28.233 E.02176
G1 X132.668 Y28.771 E.02178
G1 X132.403 Y29.207 E.0192
G1 X131.99 Y29.698 E.02414
G1 X131.539 Y30.066 E.0219
G1 X131.035 Y30.351 E.02178
G1 X130.491 Y30.546 E.02174
G1 X129.926 Y30.645 E.02158
G1 X129.338 Y30.648 E.02212
G1 X128.772 Y30.554 E.02159
G1 X128.226 Y30.364 E.02175
G1 X127.72 Y30.084 E.02176
G1 X127.268 Y29.723 E.02176
G1 X126.884 Y29.29 E.02178
G1 X126.614 Y28.857 E.0192
G1 X126.409 Y28.379 E.01957
G1 X126.236 Y27.699 E.0264
G1 X126.209 Y27.121 E.02177
G1 X126.279 Y26.547 E.02176
G1 X126.446 Y25.993 E.02177
G1 X126.704 Y25.475 E.02177
G1 X127.046 Y25.009 E.02175
G1 X127.462 Y24.607 E.02177
G1 X127.939 Y24.28 E.02176
G1 X128.465 Y24.04 E.02175
G1 X129 Y23.898 E.02083
M204 P1000
G1 X129.197 Y23.513 F9000
G1 E-2.24 F4200
;WIPE_START
G1 F7200
G1 X129.532 Y23.845 E-.29628
G1 X130.173 Y23.886 E-.35595
G1 X130.711 Y24.022 E-.30777
;WIPE_END
G1 Z.4 F720
G1 X130.751 Y23.872 F9000
G1 X130.805 Y23.886
G1 X140.098 Y27.8
G1 X140.205 Y28.295
G1 X140.431 Y28.856
G1 X140.748 Y29.371
G1 X141.148 Y29.826
G1 X141.618 Y30.206
G1 X142.147 Y30.501
G1 X142.717 Y30.702
G1 X143.302 Y30.803
G1 X143.375 Y30.806
G1 X143.857 Y30.806
G1 X143.931 Y30.803
G1 X144.515 Y30.702
G1 X145.086 Y30.501
G1 X145.614 Y30.206
G1 X147.963 Y28.537
G1 Z.2 F720
G1 E3.2 F2400
M204 P800
;TYPE:Perimeter
G1 F1200
G1 X147.922 Y28.685 E.00578
G1 X147.718 Y29.193 E.0206
G1 X147.331 Y29.858 E.02895
G1 X146.837 Y30.448 E.02895
G1 X146.25 Y30.946 E.02896
G1 X145.587 Y31.338 E.02898
G1 X144.868 Y31.612 E.02895
G1 X144.117 Y31.761 E.02881
G1 X143.339 Y31.779 E.02928
G1 X142.581 Y31.669 E.02882
G1 X141.849 Y31.43 E.02897
G1 X141.168 Y31.072 E.02895
G1 X140.558 Y30.603 E.02895
G1 X140.035 Y30.038 E.02897
G1 X139.615 Y29.392 E.02899
G1 X139.311 Y28.685 E.02896
G1 X139.13 Y27.937 E.02896
G1 X139.078 Y27.169 E.02896
G1 X139.157 Y26.403 E.02897
G1 X139.364 Y25.662 E.02895
G1 X139.694 Y24.966 E.02898
G1 X140.136 Y24.336 E.02896
G1 X140.679 Y23.79 E.02897
G1 X141.306 Y23.343 E.02897
G1 X141.999 Y23.009 E.02894
G1 X142.739 Y22.797 E.02896
G1 X143.437 Y22.718 E.02643
G1 X144.248 Y22.757 E.03055
G1 X145.022 Y22.934 E.02987
G1 X145.731 Y23.234 E.02897
G1 X146.38 Y23.649 E.02898
G1 X146.948 Y24.168 E.02895
G1 X147.321 Y24.641 E.02266
G1 X147.539 Y24.966 E.01472
G1 X147.785 Y25.454 E.02056
G1 X148.028 Y26.184 E.02895
G1 X148.145 Y26.945 E.02897
G1 X148.131 Y27.715 E.02898
G1 X147.979 Y28.48 E.02935
M204 P1000
G1 X147.575 Y28.477 F9000
M204 P800
G1 F1200
G1 X147.368 Y29.052 E.02299
G1 X147.01 Y29.66 E.02655
G1 X146.554 Y30.199 E.02656
G1 X146.013 Y30.653 E.02657
G1 X145.403 Y31.009 E.02657
G1 X144.742 Y31.257 E.02656
G1 X144.053 Y31.389 E.0264
G1 X143.339 Y31.402 E.02687
G1 X142.645 Y31.297 E.02641
G1 X141.975 Y31.075 E.02656
G1 X141.352 Y30.742 E.02658
G1 X140.794 Y30.31 E.02655
G1 X140.318 Y29.789 E.02655
G1 X139.936 Y29.195 E.02657
G1 X139.661 Y28.545 E.02656
G1 X139.499 Y27.858 E.02656
G1 X139.455 Y27.153 E.02658
G1 X139.531 Y26.451 E.02657
G1 X139.725 Y25.772 E.02657
G1 X140.031 Y25.136 E.02656
G1 X140.439 Y24.56 E.02656
G1 X140.94 Y24.062 E.02658
G1 X141.517 Y23.656 E.02655
G1 X142.155 Y23.353 E.02657
G1 X142.834 Y23.162 E.02654
G1 X143.468 Y23.094 E.02399
G1 X144.223 Y23.133 E.02844
G1 X144.927 Y23.299 E.02721
G1 X145.576 Y23.578 E.02658
G1 X146.168 Y23.962 E.02655
G1 X146.687 Y24.44 E.02655
G1 X147.018 Y24.865 E.02027
G1 X147.202 Y25.136 E.01232
G1 X147.448 Y25.624 E.02056
G1 X147.668 Y26.295 E.02657
G1 X147.771 Y26.993 E.02655
G1 X147.754 Y27.699 E.02657
G1 X147.639 Y28.298 E.02295
G1 X147.595 Y28.421 E.00492
M204 P1000
G1 X147.221 Y28.354 F9000
M204 P800
G1 F1200
G1 X147.018 Y28.911 E.02231
G1 X146.689 Y29.462 E.02415
G1 X146.27 Y29.95 E.0242
G1 X145.776 Y30.36 E.02415
G1 X145.219 Y30.68 E.02417
G1 X144.617 Y30.901 E.02413
G1 X143.989 Y31.017 E.02403
G1 X143.339 Y31.025 E.02446
G1 X142.709 Y30.926 E.02399
