; generated by PrusaSlicer 2.6.0-alpha3+MacOS-x64 on 2023-04-30 at 21:15:08 UTC


;
;

;
;
; 

; external perimeters extrusion width = 0.45mm
; perimeters extrusion width = 0.45mm
; infill extrusion width = 0.45mm
; solid infill extrusion width = 0.45mm
; top infill extrusion width = 0.40mm
; first layer extrusion width = 0.42mm

; external perimeters extrusion width = 0.45mm
; perimeters extrusion width = 0.45mm
; infill extrusion width = 0.45mm
; solid infill extrusion width = 0.45mm
; top infill extrusion width = 0.40mm
; first layer extrusion width = 0.42mm

; external perimeters extrusion width = 0.45mm
; perimeters extrusion width = 0.45mm
; infill extrusion width = 0.45mm
; solid infill extrusion width = 0.45mm
; top infill extrusion width = 0.40mm
; first layer extrusion width = 0.42mm

; external perimeters extrusion width = 0.45mm
; perimeters extrusion width = 0.45mm
; infill extrusion width = 0.45mm
; solid infill extrusion width = 0.45mm
; top infill extrusion width = 0.40mm
; first layer extrusion width = 0.42mm

; external perimeters extrusion width = 0.45mm
; perimeters extrusion width = 0.45mm
; infill extrusion width = 0.45mm
; solid infill extrusion width = 0.45mm
; top infill extrusion width = 0.40mm
; first layer extrusion width = 0.42mm

; external perimeters extrusion width = 0.45mm
; perimeters extrusion width = 0.45mm
; infill extrusion width = 0.45mm
; solid infill extrusion width = 0.45mm
; top infill extrusion width = 0.40mm
; first layer extrusion width = 0.42mm

M73 P0 R188
M201 X2500 Y2500 Z400 E5000 ; sets maximum accelerations, mm/sec^2
M203 X180 Y180 Z12 E80 ; sets maximum feedrates, mm / sec
M204 P1250 R1250 T2500 ; sets acceleration (P, T) and retract acceleration (R), mm/sec^2
M205 X8.00 Y8.00 Z2.00 E10.00 ; sets the jerk limits, mm/sec
M205 S0 T0 ; sets the minimum extruding and travel feed rate, mm/sec
M107
;TYPE:Custom
M862.3 P "MINI" ; printer model check
G90 ; use absolute coordinates
M83 ; extruder relative mode
M104 S170 ; set extruder temp for bed leveling
M140 S30 ; set bed temp
M109 R170 ; wait for bed leveling temp
M190 S30 ; wait for bed temp
M204 T1250 ; set travel acceleration
G28 ; home all without mesh bed level
G29 ; mesh bed leveling 
M204 T2500 ; restore travel acceleration
M104 S245 ; set extruder temp
G92 E0
G1 Y-2 X179 F2400
G1 Z3 F720
M109 S245 ; wait for extruder temp

; intro line
G1 X170 F1000
G1 Z0.2 F720
G1 X110 E8 F900
G1 X40 E10 F700
G92 E0

M221 S95 ; set flow
G21 ; set units to millimeters
G90 ; use absolute coordinates
M83 ; use relative distances for extrusion
M900 K0.2 ; Filament gcode LA 1.5
; ; Filament gcode LA 1.0
M107
;LAYER_CHANGE
;Z:0.2
;HEIGHT:0.2
;BEFORE_LAYER_CHANGE
G92 E0.0
;0.2


G1 E-3.2 F4200
G1 Z.2 F720
;AFTER_LAYER_CHANGE
;0.2
G1 Z.4
G1 X10.46 Y8.66 F9000
G1 Z.2 F720
G1 E3.2 F2400
M204 P800
;TYPE:Skirt/Brim
;WIDTH:0.42
G1 F1200
G1 X11.505 Y7.784 E.05131
G1 X12.445 Y7.59 E.03611
G1 X62.473 Y7.59 E1.88231
G1 X165.401 Y8.81 E3.87295
G1 X166.704 Y9.217 E.05136
G1 X167.568 Y10.273 E.05134
G1 X167.75 Y11.187 E.03506
G1 X167.749 Y36.279 E.94409
G1 X162.889 Y161.875 E4.72911
G1 X162.448 Y163.166 E.05133
G1 X161.369 Y164.001 E.05133
G1 X160.514 Y164.16 E.03272
G1 X110.492 Y164.16 E1.88209
G1 X14.229 Y163.286 E3.62206
G1 X12.926 Y162.883 E.05132
G1 X12.059 Y161.829 E.05135
G1 X11.874 Y160.943 E.03405
G1 X10.068 Y35.001 E4.73907
G1 X10.068 Y9.967 E.94191
M73 P0 R187
G1 X10.442 Y8.717 E.04909
M204 P1000
; printing object val hoder mono 8_3_6.STL id:0 copy 0
G1 E-2.24 F4200
;WIPE_START
G1 F7200
G1 X11.505 Y7.784 E-.7838
G1 X11.816 Y7.72 E-.1762
;WIPE_END
G1 Z.4 F720
G1 X41.659 Y25.109 F9000
G1 X42.131 Y25.373
G1 X42.641 Y25.553
G1 X60.904 Y30.545
G1 Z.2 F720
G1 E3.2 F2400
M204 P800
;TYPE:Perimeter
;WIDTH:0.419999
G1 F1200
G1 X60.904 Y33.426 E.1084
G1 X13.986 Y33.426 E1.76529
G1 X13.986 Y11.508 E.82467
G1 X60.904 Y11.508 E1.76529
G1 X60.904 Y30.485 E.71401
M204 P1000
G1 X61.281 Y30.545 F9000
M204 P800
G1 F1200
G1 X61.281 Y33.803 E.12258
G1 X13.609 Y33.803 E1.79366
G1 X13.609 Y11.131 E.85304
G1 X61.281 Y11.131 E1.79366
G1 X61.281 Y30.485 E.7282
M204 P1000
G1 X61.658 Y30.545 F9000
M204 P800
G1 F1200
G1 X61.658 Y34.18 E.13677
G1 X13.232 Y34.18 E1.82203
G1 X13.232 Y10.754 E.88141
G1 X61.658 Y10.754 E1.82203
G1 X61.658 Y30.485 E.74238
M204 P1000
G1 X62.035 Y30.545 F9000
M204 P800
;TYPE:External perimeter
G1 F1200
G1 X62.035 Y34.557 E.15095
G1 X12.855 Y34.557 E1.8504
G1 X12.855 Y10.377 E.90977
G1 X62.035 Y10.377 E1.8504
G1 X62.035 Y30.485 E.75657
M204 P1000
G1 X61.792 Y30.863 F9000
G1 E-2.24 F4200
;WIPE_START
G1 F7200
G1 X62.035 Y32.217 E-.96
;WIPE_END
G1 Z.4 F720
G1 X61.879 Y32.159 F9000
G1 X42.546 Y25.92
G1 X41.975 Y25.718
G1 X34.983 Y22.107
G1 X34.933 Y21.715
G1 X34.755 Y21.137
G1 X34.483 Y20.596
G1 X34.123 Y20.11
G1 X33.686 Y19.691
G1 X33.185 Y19.352
G1 X32.634 Y19.103
G1 X32.048 Y18.951
G1 X23.464 Y17.802
G1 Z.2 F720
G1 E3.2 F2400
M204 P800
;TYPE:Perimeter
G1 F1200
G1 X23.475 Y18.062 E.00979
G1 X23.401 Y18.639 E.02189
G1 X23.27 Y19.065 E.01677
G1 X23.006 Y19.59 E.02211
G1 X22.743 Y19.944 E.01659
G1 X22.323 Y20.347 E.0219
G1 X21.953 Y20.597 E.0168
G1 X21.422 Y20.837 E.02192
G1 X21.045 Y20.943 E.01473
G1 X20.508 Y21.007 E.02035
G1 X19.845 Y20.943 E.02506
G1 X19.296 Y20.781 E.02154
G1 X18.886 Y20.555 E.01761
G1 X18.451 Y20.258 E.01982
G1 X18.192 Y19.995 E.01389
G1 X17.846 Y19.527 E.0219
G1 X17.645 Y19.129 E.01678
G1 X17.475 Y18.572 E.02191
G1 X17.418 Y18.13 E.01677
G1 X17.443 Y17.548 E.02192
G1 X17.537 Y17.112 E.01678
G1 X17.754 Y16.572 E.0219
G1 X17.988 Y16.192 E.01679
G1 X18.372 Y15.755 E.02189
G1 X18.719 Y15.475 E.01678
G1 X19.228 Y15.191 E.02193
G1 X19.639 Y15.044 E.01642
G1 X20.174 Y14.948 E.02045
G1 X20.819 Y14.952 E.02427
G1 X21.175 Y15.025 E.01367
G1 X21.725 Y15.219 E.02194
G1 X22.114 Y15.437 E.01678
G1 X22.567 Y15.802 E.02189
G1 X22.862 Y16.137 E.01679
G1 X23.167 Y16.633 E.02191
G1 X23.333 Y17.047 E.01678
G1 X23.456 Y17.616 E.0219
G1 X23.461 Y17.742 E.00474
M204 P1000
G1 X23.093 Y17.82 F9000
M204 P800
G1 F1200
G1 X23.101 Y18.014 E.00731
G1 X23.027 Y18.591 E.02189
G1 X22.934 Y18.896 E.012
G1 X22.67 Y19.419 E.02204
G1 X22.482 Y19.672 E.01186
G1 X22.062 Y20.075 E.0219
G1 X21.798 Y20.253 E.01198
G1 X21.267 Y20.493 E.02192
G1 X20.997 Y20.569 E.01055
G1 X20.49 Y20.63 E.01921
G1 X19.893 Y20.569 E.02258
G1 X19.366 Y20.404 E.02078
G1 X18.725 Y19.991 E.02869
G1 X18.495 Y19.771 E.01198
G1 X18.149 Y19.303 E.0219
G1 X18.006 Y19.018 E.012
G1 X17.835 Y18.462 E.02189
G1 X17.795 Y18.146 E.01198
G1 X17.82 Y17.564 E.02192
G1 X17.887 Y17.253 E.01197
G1 X18.104 Y16.713 E.0219
G1 X18.271 Y16.441 E.01201
G1 X18.655 Y16.004 E.02189
G1 X18.903 Y15.804 E.01199
G1 X19.412 Y15.52 E.02193
G1 X19.706 Y15.415 E.01175
G1 X20.24 Y15.32 E.02041
G1 X20.795 Y15.329 E.02088
G1 X21.599 Y15.575 E.03163
G1 X21.877 Y15.73 E.01198
G1 X22.33 Y16.096 E.02191
G1 X22.541 Y16.335 E.012
G1 X22.846 Y16.831 E.02191
G1 X22.965 Y17.126 E.01197
G1 X23.09 Y17.76 E.02431
M204 P1000
G1 X22.714 Y17.864 F9000
M204 P800
G1 F1200
G1 X22.695 Y18.211 E.01308
G1 X22.597 Y18.726 E.01972
G1 X22.334 Y19.248 E.02199
G1 X22.143 Y19.474 E.01113
G1 X21.748 Y19.847 E.02044
G1 X21.111 Y20.149 E.02652
G1 X20.516 Y20.25 E.02271
G1 X19.94 Y20.195 E.02177
G1 X19.483 Y20.043 E.01812
G1 X18.937 Y19.679 E.02469
G1 X18.799 Y19.547 E.00719
G1 X18.452 Y19.079 E.02192
G1 X18.196 Y18.351 E.02904
G1 X18.172 Y18.162 E.00717
G1 X18.196 Y17.58 E.02192
G1 X18.454 Y16.853 E.02902
G1 X18.938 Y16.253 E.029
G1 X19.595 Y15.849 E.02902
G1 X20.303 Y15.692 E.02729
G1 X20.772 Y15.705 E.01765
G1 X21.473 Y15.93 E.0277
G1 X22.093 Y16.389 E.02902
G1 X22.22 Y16.533 E.00722
G1 X22.525 Y17.028 E.02188
G1 X22.596 Y17.206 E.00721
G1 X22.717 Y17.804 E.02296
M204 P1000
G1 X22.347 Y17.881 F9000
M204 P800
;TYPE:External perimeter
G1 F1200
G1 X22.279 Y18.495 E.02324
G1 X21.998 Y19.076 E.02428
G1 X21.54 Y19.53 E.02426
G1 X20.956 Y19.806 E.0243
G1 X20.454 Y19.877 E.01908
G1 X19.949 Y19.812 E.01916
G1 X19.63 Y19.693 E.01281
G1 X19.148 Y19.367 E.02189
G1 X18.756 Y18.854 E.02429
G1 X18.556 Y18.241 E.02426
G1 X18.573 Y17.596 E.02428
G1 X18.804 Y16.994 E.02426
G1 X19.222 Y16.502 E.02429
G1 X19.779 Y16.179 E.02423
G1 X20.369 Y16.063 E.02262
G1 X20.799 Y16.092 E.01622
G1 X21.348 Y16.286 E.02191
G1 X21.856 Y16.682 E.02423
G1 X22.204 Y17.226 E.0243
G1 X22.342 Y17.822 E.02302
M204 P1000
G1 X22.704 Y18.061 F9000
G1 E-2.24 F4200
;WIPE_START
G1 F7200
G1 X22.279 Y18.495 E-.37458
G1 X21.998 Y19.076 E-.35765
G1 X21.706 Y19.365 E-.22777
;WIPE_END
G1 Z.4 F720
G1 X21.819 Y19.505 F9000
G1 X18.526 Y26.196
G1 X18.424 Y26.531
G1 X18.379 Y26.879
G1 X18.394 Y27.23
G1 X18.468 Y27.572
G1 X18.599 Y27.898
G1 X19.72 Y29.902
G1 Z.2 F720
G1 E3.2 F2400
M204 P800
;TYPE:Perimeter
G1 F1200
G1 X19.467 Y29.836 E.00984
G1 X18.937 Y29.597 E.02188
G1 X18.567 Y29.347 E.0168
G1 X18.147 Y28.944 E.0219
G1 X17.882 Y28.585 E.01679
G1 X17.62 Y28.065 E.02191
G1 X17.489 Y27.639 E.01677
G1 X17.415 Y27.062 E.02189
G1 X17.434 Y26.616 E.0168
G1 X17.557 Y26.047 E.0219
G1 X17.723 Y25.633 E.01678
G1 X18.028 Y25.137 E.02191
G1 X18.45 Y24.674 E.02357
G1 X18.836 Y24.41 E.0176
G1 X19.298 Y24.155 E.01985
G1 X19.639 Y24.044 E.01349
G1 X20.171 Y23.949 E.02033
G1 X20.704 Y23.945 E.02005
G1 X21.068 Y23.992 E.01381
G1 X21.503 Y24.115 E.01701
G1 X22.171 Y24.475 E.02855
G1 X22.518 Y24.755 E.01678
G1 X22.904 Y25.194 E.02199
G1 X23.14 Y25.581 E.01705
G1 X23.353 Y26.112 E.02153
G1 X23.447 Y26.548 E.01678
G1 X23.472 Y27.13 E.02192
G1 X23.415 Y27.572 E.01677
G1 X23.245 Y28.129 E.02191
G1 X23.044 Y28.527 E.01678
G1 X22.698 Y28.995 E.0219
G1 X22.376 Y29.304 E.01679
G1 X21.893 Y29.63 E.02192
G1 X21.488 Y29.813 E.01672
G1 X20.929 Y29.959 E.02174
G1 X20.486 Y29.998 E.01673
G1 X19.902 Y29.949 E.02205
G1 X19.778 Y29.917 E.00482
M204 P1000
G1 X19.812 Y29.542 F9000
M204 P800
G1 F1200
G1 X19.623 Y29.493 E.00735
G1 X19.092 Y29.253 E.02192
G1 X18.828 Y29.075 E.01198
G1 X18.408 Y28.672 E.0219
G1 X18.219 Y28.416 E.01197
G1 X17.956 Y27.896 E.02193
G1 X17.863 Y27.591 E.012
G1 X17.789 Y27.014 E.02189
G1 X17.803 Y26.695 E.01201
G1 X17.925 Y26.126 E.0219
G1 X18.044 Y25.831 E.01197
G1 X18.349 Y25.335 E.02191
G1 X18.711 Y24.946 E.01999
G1 X19.412 Y24.52 E.03086
G1 X19.706 Y24.415 E.01175
G1 X20.237 Y24.32 E.0203
G1 X20.795 Y24.329 E.021
G1 X21.364 Y24.466 E.02202
G1 X21.987 Y24.804 E.02667
G1 X22.235 Y25.004 E.01199
G1 X22.62 Y25.443 E.02197
G1 X22.79 Y25.721 E.01226
G1 X23.003 Y26.253 E.02156
G1 X23.07 Y26.564 E.01197
G1 X23.095 Y27.146 E.02192
G1 X23.055 Y27.462 E.01198
G1 X22.884 Y28.018 E.02189
G1 X22.741 Y28.303 E.012
G1 X22.395 Y28.771 E.0219
G1 X22.165 Y28.991 E.01198
G1 X21.682 Y29.317 E.02192
G1 X21.393 Y29.449 E.01195
G1 X20.833 Y29.594 E.02176
G1 X20.517 Y29.622 E.01194
G1 X19.87 Y29.557 E.02447
M204 P1000
G1 X19.873 Y29.161 F9000
M204 P800
G1 F1200
G1 X19.248 Y28.909 E.02536
G1 X18.794 Y28.519 E.02252
G1 X18.555 Y28.246 E.01365
G1 X18.293 Y27.726 E.02191
G1 X18.237 Y27.543 E.0072
G1 X18.163 Y26.966 E.02189
G1 X18.171 Y26.775 E.00719
G1 X18.294 Y26.206 E.0219
G1 X18.67 Y25.533 E.02901
G1 X19.03 Y25.17 E.01924
G1 X19.595 Y24.849 E.02445
G1 X20.055 Y24.736 E.01782
G1 X20.438 Y24.684 E.01454
G1 X20.878 Y24.722 E.01662
G1 X21.295 Y24.849 E.0164
G1 X21.803 Y25.133 E.0219
G1 X21.952 Y25.253 E.0072
G1 X22.337 Y25.691 E.02194
G1 X22.44 Y25.862 E.00751
G1 X22.653 Y26.393 E.02153
G1 X22.694 Y26.58 E.0072
G1 X22.718 Y27.162 E.02192
G1 X22.612 Y27.621 E.01772
G1 X22.438 Y28.079 E.01843
G1 X22.091 Y28.547 E.02192
G1 X21.953 Y28.679 E.00719
G1 X21.471 Y29.005 E.02189
G1 X20.738 Y29.23 E.02885
G1 X20.548 Y29.246 E.00717
G1 X19.929 Y29.183 E.02341
M204 P1000
G1 X19.521 Y28.617 F9000
M204 P800
;TYPE:External perimeter
G1 F1200
G1 X19.403 Y28.566 E.00484
G1 X18.93 Y28.127 E.02428
G1 X18.63 Y27.556 E.02427
G1 X18.537 Y26.918 E.02426
G1 X18.663 Y26.285 E.02428
G1 X18.991 Y25.73 E.02426
G1 X19.271 Y25.462 E.01458
G1 X19.779 Y25.179 E.02188
G1 X20.369 Y25.063 E.02262
G1 X20.783 Y25.087 E.0156
G1 X21.111 Y25.179 E.01282
G1 X21.619 Y25.462 E.02188
G1 X22.053 Y25.939 E.02426
G1 X22.304 Y26.534 E.0243
G1 X22.334 Y27.241 E.02662
G1 X22.163 Y27.798 E.02192
G1 X21.788 Y28.323 E.02427
G1 X21.26 Y28.693 E.02426
G1 X20.643 Y28.865 E.0241
G1 X19.995 Y28.822 E.02443
G1 X19.576 Y28.64 E.01719
M204 P1000
G1 X19.423 Y28.7 F9000
G1 E-2.24 F4200
;WIPE_START
G1 F7200
G1 X19.403 Y28.566 E-.10427
G1 X18.93 Y28.127 E-.35762
G1 X18.63 Y27.556 E-.35744
G1 X18.593 Y27.305 E-.14067
;WIPE_END
G1 Z.4 F720
G1 X18.418 Y27.343 F9000
G1 X18.394 Y27.23
G1 X18.379 Y26.879
G1 X18.424 Y26.531
G1 X18.526 Y26.196
G1 X18.684 Y25.883
G1 X18.893 Y25.601
G1 X19.146 Y25.358
G1 X19.437 Y25.162
G1 X19.756 Y25.017
G1 X20.096 Y24.929
G1 X27.108 Y23.762
G1 Z.2 F720
G1 E3.2 F2400
M204 P800
;TYPE:Perimeter
G1 F1200
G1 X26.959 Y23.154 E.02355
G1 X26.907 Y22.386 E.02896
G1 X26.986 Y21.621 E.02894
G1 X27.193 Y20.879 E.02898
G1 X27.523 Y20.183 E.02898
G1 X27.965 Y19.553 E.02896
G1 X28.384 Y19.125 E.02254
G1 X28.682 Y18.867 E.01483
G1 X29.134 Y18.56 E.02056
G1 X29.828 Y18.226 E.02898
G1 X30.568 Y18.014 E.02896
G1 X31.265 Y17.936 E.02639
G1 X32.077 Y17.974 E.03059
G1 X32.851 Y18.152 E.02988
G1 X33.56 Y18.451 E.02895
G1 X34.208 Y18.867 E.02897
G1 X34.777 Y19.385 E.02895
G1 X35.25 Y19.993 E.02898
G1 X35.613 Y20.671 E.02894
G1 X35.857 Y21.402 E.029
G1 X35.973 Y22.163 E.02896
G1 X35.96 Y22.932 E.02894
G1 X35.816 Y23.689 E.02899
G1 X35.547 Y24.41 E.02895
G1 X35.195 Y25.017 E.0264
G1 X34.682 Y25.646 E.03054
G1 X34.078 Y26.164 E.02994
G1 X33.416 Y26.555 E.02893
G1 X32.697 Y26.83 E.02896
G1 X31.946 Y26.978 E.0288
G1 X31.167 Y26.997 E.02932
G1 X30.41 Y26.886 E.02879
G1 X29.678 Y26.648 E.02896
G1 X28.997 Y26.289 E.02897
G1 X28.593 Y25.987 E.01898
G1 X28.225 Y25.665 E.0184
G1 X27.864 Y25.255 E.02055
G1 X27.48 Y24.668 E.02639
G1 X27.149 Y23.926 E.03057
G1 X27.123 Y23.82 E.00411
M204 P1000
G1 X27.469 Y23.665 F9000
M204 P800
G1 F1200
G1 X27.327 Y23.075 E.02283
G1 X27.284 Y22.37 E.02657
G1 X27.36 Y21.668 E.02657
G1 X27.554 Y20.99 E.02653
G1 X27.859 Y20.353 E.02657
G1 X28.268 Y19.778 E.02655
G1 X28.645 Y19.397 E.02017
G1 X28.893 Y19.179 E.01242
G1 X29.346 Y18.873 E.02057
G1 X29.983 Y18.57 E.02654
G1 X30.663 Y18.379 E.02658
G1 X31.297 Y18.311 E.02399
G1 X32.052 Y18.35 E.02844
G1 X32.756 Y18.517 E.02722
G1 X33.405 Y18.795 E.02656
G1 X33.997 Y19.179 E.02655
G1 X34.516 Y19.658 E.02657
G1 X34.947 Y20.217 E.02656
G1 X35.277 Y20.841 E.02656
G1 X35.496 Y21.512 E.02656
G1 X35.599 Y22.211 E.02658
G1 X35.583 Y22.916 E.02653
G1 X35.448 Y23.609 E.02656
G1 X35.197 Y24.269 E.02657
G1 X34.874 Y24.819 E.024
G1 X34.394 Y25.403 E.02844
G1 X33.842 Y25.87 E.0272
G1 X33.232 Y26.226 E.02657
G1 X32.571 Y26.474 E.02656
G1 X31.882 Y26.606 E.0264
G1 X31.167 Y26.62 E.02691
G1 X30.474 Y26.514 E.02638
G1 X29.804 Y26.292 E.02656
G1 X29.181 Y25.96 E.02656
G1 X28.623 Y25.527 E.02657
G1 X28.218 Y25.087 E.0225
G1 X27.801 Y24.47 E.02802
G1 X27.483 Y23.723 E.03055
M204 P1000
G1 X27.83 Y23.572 F9000
M204 P800
G1 F1200
G1 X27.696 Y22.995 E.02229
G1 X27.661 Y22.354 E.02415
G1 X27.734 Y21.716 E.02416
G1 X27.914 Y21.1 E.02415
G1 X28.196 Y20.523 E.02416
G1 X28.571 Y20.002 E.02415
G1 X29.029 Y19.552 E.02416
G1 X29.477 Y19.239 E.02056
G1 X30.139 Y18.913 E.02776
G1 X30.758 Y18.744 E.02414
G1 X31.329 Y18.687 E.02159
G1 X32.027 Y18.727 E.02631
G1 X32.661 Y18.881 E.02455
G1 X33.249 Y19.139 E.02416
G1 X33.786 Y19.491 E.02416
G1 X34.255 Y19.93 E.02417
G1 X34.644 Y20.441 E.02416
G1 X34.94 Y21.011 E.02417
G1 X35.136 Y21.623 E.02418
G1 X35.225 Y22.258 E.02413
G1 X35.206 Y22.9 E.02417
G1 X35.079 Y23.53 E.02418
G1 X34.847 Y24.129 E.02417
G1 X34.553 Y24.622 E.0216
G1 X34.106 Y25.159 E.02629
G1 X33.605 Y25.577 E.02455
G1 X33.048 Y25.897 E.02417
G1 X32.445 Y26.119 E.02418
G1 X31.819 Y26.234 E.02395
G1 X31.167 Y26.242 E.02453
G1 X30.537 Y26.143 E.02399
G1 X29.929 Y25.937 E.02415
G1 X29.365 Y25.63 E.02416
G1 X28.86 Y25.233 E.02417
G1 X28.501 Y24.838 E.02008
G1 X28.122 Y24.272 E.02563
G1 X27.843 Y23.631 E.0263
M204 P1000
G1 X28.179 Y23.431 F9000
M204 P800
;TYPE:External perimeter
G1 F1200
G1 X28.065 Y22.916 E.01985
G1 X28.037 Y22.338 E.02177
